islomchickk/my_research_work/openml/308.csv
,theta1,theta2,theta3,theta4,theta5,theta6,thetad1,thetad2,thetad3,thetad4,thetad5,thetad6,tau1,tau2,tau3,tau4,tau5,dm1,dm2,dm3,dm4,dm5,da1,da2,da3,da4,da5,db1,db2,db3,db4,db5,thetadd6
5670,1.97662,-1.281541,1.462136,-0.988573,0.936092,-1.776513,-0.156573,-2.009173,0.804545,2.146224,-1.746244,-0.364405,49.314181,73.437033,56.209118,6.63846,-27.40369,0.267752,1.611373,0.588435,0.332595,2.428962,1.06409,0.409609,0.801117,1.87026,2.466626,1.83155,2.112269,1.908638,1.722466,2.480208,-0.001337
5369,-0.311307,-1.38293,-1.407496,0.40903,-0.805062,-1.40273,0.401622,1.919609,1.850252,0.135279,2.258555,1.247213,38.037267,-7.64558,50.737307,-8.089471,-59.742146,1.581206,2.078803,1.949142,0.735214,1.239583,2.414219,0.783935,1.101765,1.356456,2.448534,1.51847,0.673842,0.269789,2.091482,1.28129,0.017248
2111,1.79334,0.220557,-1.752702,-0.515879,0.411922,0.673616,2.299605,-1.560043,0.082258,1.777883,-0.38439,0.23865,24.026057,5.940512,-57.806597,-5.472482,-26.011403,0.270159,1.562207,2.257009,2.303027,1.718625,0.929631,1.80662,1.620166,2.123917,1.918205,0.523373,0.334215,0.409432,2.331514,1.263847,0.002209
6659,-2.199607,-0.09577,2.028457,-1.857555,-0.35537,-2.101094,1.558367,0.008802,1.84328,0.765803,1.310256,0.4713,-12.152963,45.150703,-2.130907,35.844179,33.112402,1.677044,1.822644,0.922761,1.099546,2.320652,0.950712,0.623966,1.24943,1.421661,0.353176,1.837306,2.107457,2.035849,2.259756,1.222984,-0.038808
5227,0.227673,0.048037,1.535449,1.254042,-1.830556,1.02655,1.17284,-0.001156,-0.574377,2.137073,-0.049112,-0.75259,-23.43638,4.75406,-48.504829,29.339021,50.921318,0.39382,0.931988,0.918881,1.126469,0.311989,0.35752,0.594535,1.60655,0.527227,2.097636,1.223606,1.651825,0.968393,0.774081,1.977661,-0.000277
940,-0.341322,-1.618892,0.611662,-2.224534,0.358824,-1.095307,-2.229834,0.811029,-1.981598,-2.266516,1.614483,0.678568,22.583557,61.845836,-57.030592,-13.154471,12.803418,0.4306,0.349306,2.028313,1.604292,0.836039,1.559666,2.311619,2.13604,0.92542,0.784033,0.493993,1.542271,2.441205,2.086939,1.438379,0.000817
7702,0.462586,-0.759485,1.191718,1.554359,-1.379714,0.813514,2.086942,0.921933,0.591853,-0.579388,-1.980647,-0.425146,-45.794463,-17.546758,-8.360627,32.941903,4.559271,1.040075,1.796527,0.722964,2.358753,2.308587,0.670428,1.38348,2.151798,0.270865,2.180279,1.954128,1.270216,2.024989,1.989747,1.419651,-0.004757
3542,-0.966531,-0.875252,1.716079,2.324375,0.062943,2.305377,1.208518,1.163195,-1.879878,1.454284,-1.015801,0.412544,54.140809,44.572654,32.588786,69.726415,-58.145845,1.266629,2.488476,2.322102,0.567289,0.432998,2.392624,2.334478,1.573108,0.968484,2.318595,2.381307,1.123382,2.428068,1.796324,1.822919,-0.079305
2184,1.079674,-1.323925,0.690937,1.256411,0.291521,-1.297765,2.119567,-2.097976,2.124162,-0.273319,0.899009,1.733458,71.437949,57.610583,11.06252,-72.223774,-64.973808,1.153121,0.505471,0.944865,1.346009,2.373909,0.537736,0.972676,0.765692,0.482408,0.335283,0.354732,0.976122,2.425156,2.348425,1.972372,0.063041
7278,1.532469,-1.712005,0.181079,-0.814865,-1.236474,0.212974,-1.963345,-1.7916,0.74882,-1.368842,-0.24333,0.712243,37.986734,43.036437,13.391121,64.565658,55.009014,0.422571,0.401079,1.437585,2.489947,2.290689,1.367187,0.564571,1.99175,1.34283,0.691089,2.128848,1.551856,1.549026,1.228193,2.24743,-0.026358
318,-0.330754,1.632445,0.971299,0.906569,1.548996,-1.96674,-2.296056,-0.055089,-2.249123,1.7666,-1.523872,0.123462,50.338332,36.348959,-33.05245,-62.520941,-39.463076,2.036224,1.824674,1.288868,0.49721,1.609555,1.539733,0.292216,1.024614,0.690228,1.154366,1.173806,1.65809,0.512383,2.363814,1.875425,0.003598
5114,-0.042039,0.309313,0.860261,0.796288,0.033646,-0.002941,-2.308922,0.477942,-1.85165,-0.059125,0.592311,-2.306459,-17.436115,51.212884,34.940756,-0.708029,-49.842823,2.000094,2.086834,1.91135,2.3182,2.492836,1.33803,1.015084,0.269399,2.295952,2.072941,2.424443,1.617846,1.386664,1.67101,1.659627,0.002457
8078,-1.034774,1.975906,0.841747,0.654376,-0.623336,-0.775325,-1.126451,2.119379,-0.546649,1.634913,0.046344,1.35702,-16.810099,72.658922,28.502221,-63.169897,3.534587,1.462143,1.236232,2.356658,0.855281,0.950924,1.931245,1.429701,0.49183,1.189726,1.482699,2.476883,0.978272,0.325475,2.002023,0.746508,0.069015
7585,-0.923328,-0.476016,1.237392,1.069024,-1.248304,-0.691342,1.358346,-1.804399,-2.317288,1.234666,-2.320458,-0.214684,47.49912,17.717886,34.516111,62.280664,51.123454,1.853269,0.387919,0.761924,2.412618,0.869781,1.664239,0.363623,1.913974,1.419554,0.950004,2.221538,2.384306,2.036008,0.437396,2.06221,-0.017925
7123,-1.19082,-0.589315,0.827024,-1.751447,1.720295,-2.217939,-1.904853,1.105834,0.083682,2.159495,-0.186216,-0.713072,-31.75948,68.415822,-35.271554,-9.008514,-56.096569,0.399584,1.065075,1.209034,1.990635,0.605428,2.422713,1.780683,2.186301,1.910358,1.383976,1.479339,2.245694,1.133788,1.820561,1.923635,-0.01133
8057,-1.661511,0.608293,-2.300839,-0.340552,1.898869,1.992004,-1.92055,1.176403,-1.372911,2.055329,2.097883,1.021896,-52.779337,37.678596,-35.843108,-15.123883,62.892914,1.243148,1.593174,0.733306,0.680475,1.49476,0.425161,1.18293,2.001639,1.052074,0.951099,0.377039,2.398163,0.92367,0.618157,0.357874,-0.006172
2515,2.173921,1.942121,-1.492767,-0.183192,-1.722903,0.805899,1.343739,-2.265419,1.207477,-2.187858,-0.56003,-1.784465,-59.064799,-2.078821,11.250973,-54.901527,70.042386,1.41061,1.37561,0.369765,1.645348,2.369836,1.83192,1.576972,0.666028,1.690773,0.822427,2.280931,1.60078,0.318384,2.087462,1.227724,-0.00813
7668,-0.176474,-1.903436,1.352462,-1.736482,-1.221366,-0.334121,1.588521,-2.130557,1.1745,-0.379702,-1.071502,2.021974,72.466765,-51.076055,14.747456,60.492445,-3.471638,1.407756,0.651946,1.257508,2.188439,1.849628,2.206694,0.411455,0.320922,1.979144,0.966639,0.556116,1.641793,1.11995,1.000026,1.436935,-0.023799
3734,-0.118512,1.514546,-1.344974,0.358591,-0.309664,-2.040591,0.555337,-1.690354,1.218133,-2.172051,1.209499,-1.200305,6.701962,-10.129149,9.391665,45.720851,-19.664869,0.513151,1.772387,2.258402,0.957377,2.384102,0.854178,0.426331,0.58975,2.184753,0.646674,0.408203,1.912457,0.660713,2.35214,1.414865,-0.052923
7283,2.147746,0.274319,1.755327,2.222892,0.334057,2.047499,-2.2536,1.929418,1.774097,1.958261,1.164294,-2.263059,-48.938216,-54.588107,-62.31765,-72.748093,-27.206541,0.469895,1.521639,2.186468,2.475051,1.680063,0.827525,2.461102,1.241777,1.04499,1.155261,0.470733,2.104578,0.8934,0.376224,2.203087,0.073948
6689,1.059948,1.718342,-2.051489,1.176433,-0.876273,-1.300575,2.009613,1.882738,-0.510084,-1.151737,1.243354,2.31591,-26.296936,-72.609604,50.391286,26.350366,70.600951,0.47785,2.482511,1.054238,1.321253,0.295569,1.120194,0.596573,2.09696,1.106695,0.97697,0.93801,0.878915,2.167593,2.490526,0.767432,-0.010657
2927,-1.221536,1.516458,-2.210649,-1.897676,-0.784142,1.474368,1.958459,-0.211886,1.39742,-0.11505,-1.562803,0.829748,51.607314,64.134181,3.173131,-69.187731,-38.201017,0.707513,1.422665,1.489574,1.017831,1.435377,1.382016,2.285063,1.303742,0.746369,1.977818,1.194692,1.691859,1.068018,1.181815,1.271598,0.042579
8139,1.511221,-0.687349,-2.216391,0.544671,-1.882599,-1.855684,-1.888478,-1.715369,0.190816,-2.090756,0.943479,-0.132635,-7.549339,18.261174,15.543474,-60.831367,7.209995,1.050921,1.823704,0.737575,0.43038,1.152227,1.221416,0.845154,1.746845,0.476303,1.228988,2.097398,1.71898,2.403121,1.003612,0.95464,-0.014898
3317,1.706282,-2.11403,0.919876,-0.997264,0.945615,-1.93144,1.937278,1.930334,-1.668944,-1.806912,-2.132127,-1.649698,39.180012,-1.545237,-20.791112,63.78647,9.196204,2.284006,1.538164,0.91976,2.409326,1.791968,0.609362,1.042844,1.084854,0.63372,0.938585,1.541225,0.61623,1.731623,1.131903,1.640583,-0.037362
6561,0.0522,0.823997,-0.790152,-0.57217,1.525353,1.21484,-0.958079,-0.199006,1.097365,-0.869686,1.011345,0.093746,52.549931,6.685633,15.4353,71.081531,67.295421,1.887012,0.519698,1.572164,0.863554,0.496437,2.112319,0.498039,2.044857,0.667829,0.454592,0.821549,1.023748,1.880516,1.579802,0.990911,-0.005335
1643,-0.365871,0.481838,-2.345092,0.451084,-0.86257,-1.913103,-0.887878,1.573889,1.703874,-0.17662,0.353312,0.50165,24.350917,65.86263,-46.780708,56.638688,26.430057,2.274535,2.110379,1.634942,0.723064,1.786323,2.486169,1.787832,0.851283,1.259987,1.094016,1.623198,1.337891,0.935863,0.795195,1.334803,-0.039872
1400,-0.55821,0.530143,-1.014836,-2.218785,-1.992758,-1.342253,-1.045343,-1.289188,0.182426,-1.726444,-2.174002,1.405306,15.485386,12.885026,-41.365679,17.028935,5.304571,2.183854,1.286337,0.70967,1.678217,1.300271,0.911129,1.344398,2.300162,0.814519,2.115015,0.802304,1.577179,1.900457,1.484428,2.279356,0.006308
1670,1.618598,-0.838953,-0.815866,0.79838,2.207104,-1.128733,1.462322,2.133727,0.265078,1.950853,-0.809152,0.542831,5.47277,30.841056,-54.37487,71.563884,74.195799,2.256906,0.577083,0.788859,0.604631,0.287015,1.360875,2.468775,1.954275,1.496511,0.607309,0.28611,1.905992,2.260877,2.068842,1.027813,0.041953
6555,-0.759638,-1.381425,0.329416,-0.567884,-1.830392,-0.916674,-1.733361,-0.613711,0.775748,-1.183965,1.513263,0.651531,-41.676179,48.454436,23.704994,9.836958,29.75337,0.848427,0.509768,1.174043,1.147431,1.617786,0.381401,1.451158,1.117314,1.690265,1.29289,0.598674,1.412808,2.306708,0.594838,2.184341,-0.002596
8090,-0.558642,-2.021935,-1.625884,0.910627,-0.933108,0.092573,0.793006,1.419963,1.774525,-0.276697,0.67979,-2.306667,21.151997,1.606661,3.156915,-41.728519,68.787358,2.261859,0.567605,1.240344,1.717893,2.133053,2.468295,0.628178,2.284855,2.30269,0.566452,2.115185,1.415353,2.329491,1.006127,0.469676,0.030734
2580,-0.989906,2.091048,-0.754803,-0.220188,-1.479737,2.052905,-0.934046,-1.541637,-1.583657,-0.954753,-0.845161,-1.472393,-55.889023,-26.808275,33.320837,73.302475,44.693239,0.763929,2.354639,0.662204,0.406449,1.692608,2.407122,0.758049,0.273713,0.55003,0.606287,1.116361,1.432732,1.931169,2.409311,1.547868,-0.006263
3169,-1.656718,1.037997,0.357222,0.246531,1.26196,-0.697713,-2.032199,0.222927,0.391282,-2.211344,0.555476,0.641662,-71.343316,32.880614,24.473289,22.571426,7.948569,0.49885,2.179428,1.140647,2.354659,1.00784,2.259787,1.740452,1.022899,1.107554,1.918259,1.431416,2.308778,1.633532,1.775096,0.533417,-0.009149
3047,-1.430305,-1.246787,1.248488,-0.933747,-1.225242,0.492098,0.444318,-1.491757,-2.045629,0.708652,2.114865,-1.017813,-13.16823,-68.444663,0.552418,-15.516124,70.511209,0.353382,0.794546,1.688836,2.019888,1.765657,1.654357,0.77002,1.223437,1.056703,2.253384,2.132402,0.530541,1.545052,1.933413,1.872845,0.011865
1894,-1.986241,-0.187656,-1.339168,-1.02627,-1.176276,-1.201493,-0.898067,-0.021945,-1.266244,-0.619137,-0.881967,1.957319,-16.730588,59.004038,30.866768,-72.230152,-22.157109,2.207032,1.582047,0.459552,0.937537,1.940399,2.291599,0.910768,2.023106,1.841201,2.308135,2.077813,1.050224,1.371564,2.121757,1.61833,0.024479
4538,-0.884613,-0.106738,1.474195,-0.93872,0.019268,-1.317317,-1.345517,0.650442,-0.767195,-1.158201,0.988318,-0.508968,-39.253826,-39.0556,-7.465296,-69.236876,35.816884,1.740664,2.33833,1.067317,0.640273,0.816741,1.214441,0.603691,2.476248,1.556455,2.330621,1.991627,1.51882,2.065502,1.140552,0.755609,0.072685
742,-0.638899,1.55704,1.271376,2.051,0.025159,-1.265372,-0.095558,0.887024,-1.787816,-1.629052,-0.497122,-0.06743,-74.081284,65.861485,-66.021837,70.986538,-29.254559,1.654295,1.986581,2.217548,0.58523,0.452727,0.982962,0.400562,1.75342,0.732726,2.169465,2.440192,0.806445,1.416983,0.483783,0.944941,-0.085173
5974,-1.57463,-0.031639,0.748888,-0.238258,1.127483,1.094662,0.815427,1.256193,1.334224,-1.96437,-0.166713,1.922745,-63.319296,42.600147,30.662667,-52.551277,-29.313623,0.264021,1.90046,1.53266,0.66386,1.24409,1.661636,1.622257,1.267563,2.42515,2.246238,1.266357,2.403817,1.44619,0.864166,1.790992,0.030288
5480,1.114498,-0.378923,-2.123363,-0.448753,2.336503,1.261267,1.797225,-0.454119,1.694783,-2.180713,1.715956,0.247722,-72.732013,-56.949097,6.521586,-41.699891,-50.07407,2.201658,1.259862,1.250847,0.493106,2.377766,2.364092,2.047973,1.286201,0.671989,0.623708,1.403271,1.778305,0.466642,0.849421,1.473259,-0.032631
3660,0.582556,-1.333508,-0.14247,-0.600155,-2.288105,1.617581,0.905907,-0.148877,0.103123,-0.976038,-0.444972,-0.089721,0.989053,-26.980113,-4.756164,13.144119,-36.79652,1.538383,2.354777,0.733607,1.224404,1.55404,2.248703,2.196639,2.414848,2.344779,1.456551,1.761186,0.746676,0.38288,1.55768,0.422074,0.013015
5879,1.856187,0.92569,-2.235265,-0.941359,-1.93872,2.108825,1.144245,0.066529,1.308922,1.616483,1.311364,0.245491,-66.621165,48.083027,-68.563299,-43.374418,6.160416,1.946706,0.283817,1.611386,0.810788,2.41981,2.492869,1.908325,0.976399,0.34582,1.943091,0.272381,0.651912,0.688463,0.740286,0.981158,-0.004596
2627,0.227587,-1.405476,1.366894,0.493684,-1.172468,1.546828,-0.714436,-0.356327,0.663302,-1.400284,-0.905456,-1.69684,18.767684,-21.534285,23.277971,32.86421,48.773388,1.139974,2.29725,1.381904,0.407767,1.347576,1.708945,2.487974,0.632989,2.139753,0.320016,0.25991,0.301323,1.079424,1.623416,0.505598,-0.011131
2941,0.480104,1.501481,0.547788,-1.329786,1.154735,2.006528,1.868386,-1.391884,-1.099157,-0.964732,1.079029,1.971586,-34.159841,-74.447244,65.172277,50.464076,49.730451,1.670278,0.617046,1.945048,1.663705,0.392074,0.839172,2.470898,1.640165,0.750454,0.878217,1.698654,0.528845,2.298558,0.870112,0.468169,-0.013861
6513,1.486644,0.939461,-1.6887,0.730309,-1.474427,1.760875,1.218059,1.2938,1.936613,0.19322,0.60729,-0.317544,69.16086,36.573336,-11.949684,11.660244,73.713981,2.288288,1.510968,0.589202,1.97296,0.539274,2.081873,1.78418,2.466934,0.260648,1.460689,1.541699,1.832604,1.816374,1.288805,1.700054,-0.002499
2142,0.819606,0.806116,0.271642,-0.824178,-2.243302,0.651928,0.652946,-1.089259,0.461972,-1.653318,1.637311,-2.065955,-51.599131,73.412303,-59.430962,-6.176022,-0.392961,1.307573,2.121733,1.220958,2.147411,0.78225,2.027579,0.511982,2.389533,2.12688,2.215174,1.178365,1.785234,2.171549,1.473656,1.241524,-0.001461
6409,0.3821,-1.032314,0.907853,-0.435448,-0.238267,0.975276,1.771117,-0.990194,1.967319,-2.107653,-0.289408,-0.888327,-40.000105,18.240671,-29.037086,73.701597,2.743594,2.298833,0.986046,0.469082,1.36909,1.038467,1.760657,0.859757,1.94195,1.347175,1.725436,0.656376,1.465676,2.109613,2.267294,1.901182,-0.067612
4995,0.788022,-2.237668,1.087035,-0.131543,-0.735529,-1.440269,0.941728,-1.286011,1.743858,-2.036233,-1.604286,1.048599,-17.132217,58.822771,-15.681297,-5.561056,-14.672535,1.355505,2.21981,0.347347,0.617671,1.195985,0.912493,1.765865,0.649879,0.268489,0.50091,0.799724,0.965699,0.499628,1.755659,2.359005,0.01065
5838,-1.978124,-0.427193,1.846798,-1.367396,0.503809,-0.639873,-0.680321,-1.901621,-1.122179,-1.483615,-1.873907,-1.864507,19.702042,-67.776056,-12.17168,30.5694,29.897789,1.257074,1.646909,1.590852,2.191007,2.262247,0.33098,2.275691,1.285408,0.846269,2.493739,0.767132,2.187508,1.940901,1.721116,2.290092,-0.021521
6781,0.677851,-1.910449,1.297333,0.053025,0.554269,-0.80161,0.062953,-2.237471,-0.30316,-1.10975,0.074144,2.071561,50.972972,52.74679,15.306325,3.409298,0.075182,2.328759,2.206203,1.148945,2.326459,1.789159,0.638814,1.048865,1.016889,1.348408,2.189081,1.38029,0.280452,1.313968,1.610656,2.043759,-0.01206
7033,-1.098422,1.959247,-1.114454,1.117795,-1.514376,-0.507744,0.475582,0.900938,1.163752,-1.940523,0.07584,2.294727,41.001024,4.207822,70.871715,-9.0893,-63.87224,2.113891,2.156876,2.363554,1.997429,2.284734,0.271014,2.428762,2.196077,1.957669,2.284454,2.319851,0.981335,2.302127,2.349799,0.328367,0.014384
1617,1.992787,1.814144,1.167862,1.148276,1.83654,0.580404,0.207942,-1.707538,-0.137524,-2.301472,-1.54861,-0.963423,-15.43248,-23.683082,58.434021,50.598375,56.881563,2.251559,0.710029,0.962917,1.004304,1.334828,1.212908,1.849023,1.026458,2.436612,1.386418,2.024893,0.372136,0.985949,1.089762,2.121972,0.004485
5493,1.440793,-1.556545,2.325943,-1.852504,-0.277958,-1.663265,-0.602838,-0.264093,0.452176,-1.35348,-1.238018,-2.167325,17.093793,45.382021,-14.368673,5.718536,-38.558168,0.668117,0.785976,1.643348,2.495752,0.853267,0.866761,0.399514,2.133629,0.90915,1.828013,1.157463,1.478855,0.858792,1.472171,1.029294,-0.004205
1871,1.943186,2.273897,-0.092459,1.121776,-0.576988,0.662335,1.207626,0.307135,1.943982,1.514427,1.355563,-1.462009,-50.405763,30.34151,-50.243193,62.65224,-3.797804,2.429735,0.559882,1.932581,1.389293,0.856096,1.156707,2.266397,0.332596,2.435671,1.324859,2.402272,2.478942,1.834975,1.169388,1.660547,-0.049281
5414,0.00395,0.408498,-0.326815,1.871862,0.479599,-2.276076,1.173156,0.604349,2.089113,-0.280323,0.993138,0.381821,-31.831005,66.292548,-21.146335,-56.452881,-53.574892,1.626945,1.305724,0.298379,1.097644,1.856882,0.358819,2.171424,1.627177,0.720947,2.208044,0.593928,0.401203,1.263391,2.053456,1.190407,0.055118
1261,1.477641,0.417906,2.294068,-0.358929,-0.669628,-1.261347,1.579596,-1.326797,-0.44851,1.72254,-2.187046,-1.044184,-21.271033,-52.249696,-60.63327,36.623786,-64.035751,1.391908,2.056961,1.589516,2.242967,0.297756,1.887455,1.209588,2.294138,0.822629,1.182208,1.121205,1.846568,0.265595,1.356965,2.015139,-0.027247
5039,-1.770786,1.849439,0.601841,2.35095,-0.963712,-0.622828,-1.649783,-0.209175,-0.163885,2.337261,-0.131042,-1.735309,-11.458008,25.264883,-23.109547,-52.164278,24.975643,2.359597,0.746601,1.370819,0.852808,2.14683,2.27529,1.293816,0.41902,1.475029,1.816069,0.669421,2.452073,2.497454,2.456738,2.137204,0.034371
3912,-1.717274,1.151386,2.27067,2.230817,1.568029,2.177224,0.895293,0.524842,-0.580261,2.196065,1.83781,-1.645094,-48.009501,-45.680778,-56.836924,-58.184714,-60.490973,1.798138,0.811856,2.35759,0.762547,1.621821,0.693314,1.27265,2.422501,0.480272,0.430439,2.133859,0.262916,1.337197,0.512954,0.723015,0.007072
4928,0.725762,2.222731,2.325521,0.483655,-0.077655,0.175783,-0.279126,2.274318,2.278275,-1.901862,-0.461304,-1.258263,50.292016,7.912054,-72.112759,0.855711,-18.062124,1.823176,0.861892,1.811945,1.113162,1.667043,2.489961,0.27183,0.388453,0.734354,0.285421,1.574036,0.822218,1.021021,1.052972,0.299428,0.010474
8098,-1.764098,1.152683,0.514961,-1.708009,1.372023,1.873987,-1.510101,0.654279,-2.244547,-1.426064,-0.649336,0.50539,-74.733691,50.854013,3.389237,-37.088328,56.478736,1.946664,1.837808,1.541464,2.384979,2.090265,1.086487,1.094186,2.239874,2.307968,1.514599,0.864779,0.832783,0.841224,0.953349,2.190154,0.010704
1550,0.75945,-1.791106,-0.386312,0.919331,-0.728427,0.113073,1.317883,1.438703,1.006432,2.333192,2.173702,-1.745784,-65.685069,31.039874,-12.832947,16.666817,69.196997,2.033946,1.777461,2.031146,1.971314,2.119944,0.398747,0.489303,1.457832,0.785035,1.591263,2.349623,1.870317,1.161771,1.893882,1.2223,-0.020429
8005,0.29252,1.354986,-1.728387,-1.833548,-2.132974,-1.750511,-1.397346,1.358342,-1.875469,0.164644,0.992186,-1.466594,46.796415,57.346312,69.47157,8.6697,61.654557,1.797128,1.834136,0.578384,2.403925,1.01659,0.823497,2.266626,1.927681,2.286564,1.775147,1.388773,1.106724,1.459519,2.130529,0.547364,0.004289
6384,-1.665143,0.82682,-0.477796,-0.408897,-1.6743,-2.280197,-2.119557,2.272238,0.307662,1.381425,-0.324695,-0.201005,15.885361,-14.738841,-65.69444,23.551411,-21.436194,1.70334,0.539835,0.255471,2.198741,1.740099,1.837445,2.184213,0.57565,1.455229,2.031254,1.543034,1.776277,2.382778,1.10456,1.089383,0.015088
7003,-1.44374,-0.840503,1.405693,2.267903,-1.875778,-0.32358,-0.303927,0.125779,-1.893327,1.608781,-0.898556,1.175369,2.766009,-11.680632,33.616658,-54.825056,5.288745,0.444143,0.715773,0.739732,0.681266,1.283518,0.585041,1.784034,2.252526,1.201344,0.989908,2.380246,1.287859,1.548247,1.633067,0.713966,-0.011939
4915,0.947583,-1.851931,-0.081322,-0.178414,-1.520606,-1.540605,1.63669,1.637053,-1.683863,1.930602,-1.876848,0.545949,23.877037,51.365388,48.076297,-31.668031,-44.604216,1.929181,0.491045,1.499968,2.460071,1.905303,1.92223,0.665374,1.937442,2.084174,2.212494,1.14148,0.609906,1.189148,0.766927,0.993616,0.007426
2894,0.401125,-1.723406,1.768061,-0.530811,-0.785824,1.480933,-0.796582,-0.263039,-0.670208,-1.573789,-0.040287,1.472573,2.143973,33.75709,55.415776,22.940025,53.006246,1.764683,1.03025,0.908494,2.053092,1.822221,0.573137,1.963103,1.375268,1.382064,0.853069,2.034706,1.047941,1.24562,0.376771,2.391794,-0.018153
5715,0.858383,2.213517,-1.726826,0.837188,-0.580297,1.591403,-0.810726,-2.348453,0.523187,-0.110251,-1.012092,1.48732,-58.545932,18.523172,68.9527,-11.978077,-15.54323,2.348909,1.121371,2.38976,1.444495,1.61843,2.203972,1.909772,0.536327,2.051456,1.326061,2.36088,2.069387,1.18831,2.43073,1.53408,0.02013
1323,0.216323,-2.220922,-0.204391,0.134487,-1.630596,1.820031,1.147373,0.795005,2.031404,0.554762,-1.93512,1.35051,-49.666903,-1.631171,34.902139,-49.750397,-54.921093,1.992734,2.129277,2.00807,1.13149,1.451362,2.286887,0.463154,0.737415,2.236153,0.518658,2.089251,2.037239,0.875366,1.02641,1.619856,-0.004378
7784,1.268341,-1.849499,-1.605591,-2.032591,-1.649067,-2.308233,-2.08777,-0.70133,-1.562145,-2.253071,1.398763,-1.10087,-47.423137,59.337787,-59.819422,64.980261,-26.754549,1.919364,1.999716,2.47305,1.806402,2.451913,2.053578,0.99237,1.007278,1.81578,0.308224,2.319955,0.485876,2.370971,0.656646,1.505555,0.008947
2495,1.603209,-0.29956,-1.866405,1.701198,1.964341,-0.311042,-1.642394,1.464539,1.706781,1.549381,-0.221284,-1.039243,72.033922,24.123147,-12.276758,64.522566,-69.225196,0.356903,1.471724,0.262892,0.918165,0.348239,2.108459,0.871919,1.586534,1.630879,2.188147,1.432646,0.473222,1.19514,2.477015,0.933718,0.033282
4237,0.454256,0.611859,1.086891,2.165479,1.426123,1.631474,-1.20613,1.262707,-2.290285,-2.031335,0.614436,1.986766,-12.999426,68.639238,-30.324763,31.716607,-38.986118,0.779638,0.880246,2.047644,0.253366,0.578621,1.891294,0.474471,1.928542,1.012525,2.263839,2.339115,0.75741,0.786142,2.190449,1.877776,-0.00959
4984,1.383464,0.953148,2.143184,-1.005902,1.85341,1.374261,1.78439,0.60428,0.941454,-1.189303,1.339894,-0.913167,20.534926,-19.501476,-11.301439,-43.291807,44.591585,2.136489,1.716017,2.10138,1.143453,2.273277,1.215711,1.697538,2.017477,1.72859,1.919549,0.601247,1.911958,1.278548,0.309318,0.464011,-0.015254
6232,2.117528,1.332145,0.79533,-1.938099,-1.59658,-1.384535,-0.096601,2.203402,-2.091686,-0.546011,-1.782268,2.078282,46.34166,64.27923,41.018283,-5.713671,-29.6641,1.907108,0.764199,2.385079,1.527204,1.214802,2.171162,1.711884,2.388539,1.181896,0.370103,0.567613,1.374668,0.300951,1.587198,1.530509,-0.010867
1452,-1.287863,-1.11832,2.1109,-1.676087,0.668659,-0.898011,0.913686,-1.350373,-0.848071,1.451593,0.883111,-1.583077,-19.76565,48.717103,-61.652201,11.454459,65.099357,1.748419,2.169249,1.072249,0.293893,2.21106,1.785398,0.437499,1.5524,1.679763,0.281606,0.458339,0.805582,0.419485,0.285982,2.007654,-0.016457
6755,-0.495849,-2.234804,2.099317,1.559219,0.201375,1.012688,-0.895357,-1.607148,0.071649,-2.166778,0.29798,-1.122723,-38.432797,-40.015336,62.239742,-36.664138,-14.167668,0.384938,2.404221,1.497054,0.742853,1.38661,0.747471,2.490244,0.52781,0.659432,1.076881,1.643477,2.415045,1.16854,0.910954,0.646455,0.031646
3806,-0.512221,0.628885,-0.215421,-1.460185,0.791475,-0.755942,-0.520337,0.889297,-1.278983,2.050552,1.919854,1.256611,-33.858974,32.227067,-9.68257,15.053139,-51.887846,1.689671,0.297376,2.244476,0.902921,0.642196,1.639055,2.348369,1.036154,1.143007,1.52304,0.988737,0.704724,1.7952,0.934728,1.981474,-0.020024
2937,-1.721736,1.566358,-2.329997,-0.299999,0.165782,1.26792,0.509121,-0.903358,0.577598,0.172857,-2.336907,1.369496,57.746135,39.290828,60.945554,-38.081728,10.403018,0.527775,2.32239,0.907584,0.260568,2.371288,1.480405,2.165566,2.162121,0.520178,0.634385,0.858711,2.362819,0.895293,0.692534,1.675745,0.029798
7375,0.810363,0.960594,0.059688,-0.562266,-1.657102,-0.696284,-1.578411,-2.31467,-1.881721,-1.238685,0.753329,-0.991834,-64.932258,-66.466915,-59.438417,18.528894,15.118429,1.306599,1.514391,1.863374,1.483666,0.726351,0.784754,1.353261,0.503828,0.342116,0.437731,0.952409,2.129968,2.381144,0.636804,1.010644,0.008946
6391,-1.384893,-1.415861,1.185412,-0.757199,1.917743,-1.240698,-0.094925,2.093386,0.835378,1.988907,-2.135018,1.595042,-29.199155,49.795213,58.152002,-39.299336,-53.942712,1.147705,1.729511,1.647868,1.976387,1.886138,1.565555,2.28349,1.86224,0.42183,1.440505,2.073562,1.605137,1.532101,0.263788,2.48212,-0.014861
4240,1.446176,-0.631174,-0.560209,-0.072263,1.273499,0.020693,-0.923276,0.399426,-2.002483,0.143195,-1.351122,0.703122,-41.631625,47.272446,-41.993924,-41.881542,46.928154,1.697326,0.70694,0.795715,1.078664,2.35158,1.002203,2.017361,2.034573,1.070854,1.58955,0.565077,1.492954,1.575409,1.398894,2.462384,0.019409
2358,-1.369633,0.590714,-0.879943,-1.717654,-0.513301,1.333151,-1.144483,0.65236,-1.512676,-0.20226,-1.758733,1.784445,48.672946,-53.796275,46.002217,59.256359,71.619779,0.829276,0.386769,1.681669,0.808137,0.601756,1.457203,1.457146,0.497173,0.986502,1.382188,0.680319,1.116937,2.106841,0.673022,2.225432,-0.064271
7666,-1.812333,1.005677,-0.929759,-0.174666,0.198848,0.953624,0.728937,-0.97016,-0.615972,0.472563,1.991575,0.29925,43.563671,24.618882,69.552299,15.482729,-31.780455,1.613508,0.470124,0.866038,1.74492,1.870972,0.920016,2.204981,0.871977,0.324752,1.111428,1.772068,1.402841,1.293564,0.67894,0.444854,-0.021882
5462,0.057081,-1.974416,0.634601,1.599179,-2.058876,-0.450074,-1.011041,0.311089,-2.272446,0.913655,-1.871278,-0.092768,20.770033,31.940795,-21.060076,43.302195,-20.006809,2.05838,0.686336,0.99595,0.435898,1.636361,2.074515,1.876793,2.00376,0.692954,1.981223,2.16174,0.863798,2.35214,1.421557,0.855556,0.023934
7753,1.443536,2.121973,0.640344,-0.836787,-2.110066,1.559193,-0.243778,-2.102686,-1.631615,-1.169331,-2.287164,-1.400445,35.207336,-20.307287,-54.575564,-1.503437,-68.271554,2.274913,1.721098,1.992846,1.769868,0.414054,1.253455,1.573118,1.136935,0.722178,0.402459,2.129496,1.193703,0.814371,1.887716,1.100263,0.013014
3905,0.530432,-0.865586,-0.752134,2.218099,-0.115194,0.732338,-0.346985,2.1678,-1.976307,1.841977,-2.281936,1.635626,-67.190074,-63.576999,61.370394,52.214306,65.846425,1.087907,2.45321,1.343153,1.623708,0.913723,2.197021,2.07755,1.126672,1.483905,2.493092,1.153953,0.99508,1.563673,2.153715,0.994109,-0.05806
6435,1.104143,-0.053182,1.52287,1.887457,-1.32157,-2.135044,1.163572,-0.260334,-2.331201,-1.697466,-0.499071,0.173704,-71.397758,17.885696,4.893453,44.264024,-54.544839,2.348247,1.240425,0.829218,1.664576,1.524741,0.326112,1.467706,2.47778,0.29228,2.103186,2.241656,0.762831,1.895112,1.642996,1.075248,-0.01419
33,2.122157,-0.976226,1.111666,-0.85492,-0.557972,-0.17462,0.974785,-1.762951,1.578928,1.575122,-1.134769,-1.024463,29.145876,-45.257861,1.12603,25.194537,-5.416455,1.609608,2.428106,2.429433,2.223638,1.681365,2.446676,1.785786,2.454237,0.61611,1.968665,0.349717,2.190504,0.542247,0.289562,1.416305,-0.02255
496,0.688703,1.411509,1.056935,-1.79675,-0.996714,0.76555,1.782522,2.184597,2.291626,1.002032,-0.93285,-0.286384,-60.70314,62.320906,-22.53502,3.921676,61.609676,1.732358,2.246911,1.329559,0.4006,2.385049,1.022802,1.735894,0.913751,0.419532,1.072855,1.481296,1.391632,1.915476,1.900609,1.778501,-0.003234
5921,1.342694,-0.964015,-1.00181,-0.048115,1.868405,-1.068955,-2.301415,-0.586793,0.798902,1.547145,-0.099416,2.009102,-63.908588,38.363502,-74.620021,11.313794,-49.067181,1.793331,1.018855,0.639746,0.962681,1.534914,0.302131,1.172189,1.487139,0.589837,1.388051,2.477399,0.649494,0.552079,1.290946,1.680847,0.008843
2945,1.416858,1.425478,0.229644,0.1749,-0.980213,0.074736,-2.121557,1.637488,0.905945,0.483077,-0.368117,0.424464,-18.662335,-7.863935,-19.162287,-10.555288,47.282366,0.995968,0.739289,2.231603,0.553731,2.063819,2.10891,1.700552,0.927532,0.272206,2.208794,1.955925,2.225466,0.911073,0.410135,0.641124,0.006771
6984,0.582592,-0.722613,-1.123011,-1.323239,-1.907414,0.470211,0.151747,1.015191,-1.239106,-1.609071,0.747867,1.457882,-57.092907,-10.481162,-56.890348,-56.07745,-43.696159,1.354778,1.258479,0.501494,1.617754,2.088822,1.58092,1.767142,1.85257,2.138622,1.565163,2.450699,1.902482,1.76291,0.479944,1.669106,-0.007875
6361,-0.783426,-0.632361,-1.661226,0.680094,-1.914999,0.236222,2.347079,-0.052998,-0.103215,-0.578418,0.18723,-1.103079,-28.8531,15.951746,50.988361,11.38325,68.283535,1.245562,1.663822,2.363879,0.712784,2.259292,2.42434,2.126125,0.776718,1.295681,0.251356,0.532406,1.403413,1.919705,0.975689,1.905954,0.012682
1383,0.190519,2.344479,-1.338647,-1.701055,0.427053,0.507647,-2.105386,0.105648,-0.95072,0.960441,2.200298,2.297953,-33.296294,39.186708,-38.992264,7.024622,12.826287,1.696089,2.416501,0.89014,1.825564,0.507468,0.763515,2.142508,1.631623,1.185366,2.439477,2.291052,0.71831,0.629811,0.487819,1.275009,-0.007546
4216,1.425779,0.578494,1.08789,0.101636,2.312669,1.240848,-2.099162,1.032106,0.307895,0.594934,-0.633487,-1.730943,74.271809,-13.705633,49.425498,-5.652569,-52.729014,1.126909,0.965956,0.321046,1.825182,0.838215,2.134493,1.9235,1.759556,0.35191,0.808437,1.158715,2.2769,1.363549,2.413352,1.95716,-0.008626
1407,-1.513517,-0.201799,1.280947,-2.028983,-2.269632,1.083319,-1.329612,-0.639306,-0.568142,-1.460728,1.088194,0.497067,-27.490131,-26.637967,45.684693,-27.365224,-27.322809,0.408336,1.902698,0.89892,0.89748,1.439915,1.149894,0.267834,0.729072,1.507487,0.579577,2.197429,2.185856,1.176956,0.594785,1.293573,-0.023294
2697,1.521983,1.127729,0.507549,0.946219,-1.205046,0.636112,-1.273659,2.004885,-2.184092,1.46985,1.433412,1.619179,-16.344944,-59.48143,45.608339,39.358313,-4.830404,0.856067,0.666304,1.825707,0.664206,0.303742,1.246571,0.614916,2.151529,0.2521,1.786775,1.070015,0.982997,0.975754,0.741622,0.940275,-0.004331
6571,-1.697773,-0.962583,-0.508301,0.553672,-1.408657,-0.255612,1.620709,1.639363,-0.568671,-0.926939,0.102357,0.299912,-51.978109,3.928333,23.495842,-55.379925,-20.406248,0.357836,1.406566,0.907185,0.305587,0.744927,2.494491,2.165157,2.045979,1.517685,0.973677,1.834786,0.253724,2.085235,2.039089,0.46957,0.01319
3025,-1.843182,0.876909,-2.136706,1.492144,-0.864508,-1.486679,-1.529998,0.826033,0.436389,1.917804,-0.2011,-1.097853,67.057838,-58.921298,9.742088,-64.7281,64.818028,0.573951,2.137876,0.274819,1.137771,1.260425,1.712852,0.646477,1.595148,2.401749,0.443524,1.557619,1.654308,2.19747,0.634788,0.876241,0.039318
487,1.141104,-0.89356,0.316374,1.729019,-1.675835,0.185439,1.786657,0.998045,-1.966387,-1.074825,-1.993845,-0.751212,-35.998694,69.957403,74.077667,23.356975,10.67467,1.5127,0.440013,1.042342,1.636707,1.128691,1.66816,1.011596,2.386491,0.504298,1.485586,1.497986,0.645735,0.363461,1.431658,1.874456,0.012844
465,0.133983,-0.665153,-1.435893,-0.912632,0.219579,0.671984,-1.56397,0.060216,-1.105792,0.620042,1.952232,-1.203218,-51.827125,-8.49196,-74.380674,-15.980148,71.657899,1.439568,2.069497,0.791992,1.504505,2.221345,1.403064,0.555569,1.440443,1.016844,0.590097,1.262596,2.208313,0.616533,2.313992,1.521914,0.012581
319,1.497755,-0.809311,-2.133358,1.225052,1.020763,-1.84736,1.357376,0.750218,-1.444479,0.871416,-0.214903,-2.181809,68.280331,-62.472651,22.156852,-59.790111,-42.392839,1.428268,1.157407,0.548149,0.48368,1.45396,0.949593,2.056142,1.331627,1.412106,1.763528,1.865698,2.293381,1.599043,0.359277,0.863937,0.029183
4602,1.27518,0.00299,-1.581945,-0.458004,-2.349201,2.09341,1.246526,-0.917402,0.165249,1.744286,0.445328,1.361773,-23.840764,-41.719789,65.507128,-21.692401,65.808071,0.418729,1.080164,0.558386,1.543747,0.253439,1.802241,2.265434,2.155273,2.427406,1.905834,1.852045,2.314921,1.370717,1.392185,2.202285,-0.017536
2892,-1.33469,-1.154051,0.053884,0.851694,-1.811594,-0.722027,-0.714272,-2.317954,-0.533981,-2.234585,1.074169,0.397357,29.404526,-48.129231,42.014115,-68.771392,59.21995,2.270486,1.554999,0.370168,1.669711,2.328688,1.009015,1.7608,1.01373,2.266453,1.283658,0.690571,2.422513,0.680965,0.736825,1.310037,-0.015692
4829,-2.201807,0.62674,1.421957,2.298743,-1.90582,-1.009673,-0.257866,1.436686,0.095886,-0.082473,-0.687825,-0.779278,-50.785984,-60.027126,24.095951,-19.353941,68.311872,1.639404,1.455884,1.790432,1.790015,1.531889,1.203727,0.540165,1.300209,2.111085,2.248207,0.623096,2.372944,2.316689,1.845673,0.968633,-0.000888
7770,1.30992,-0.448651,-0.647537,-2.247739,1.477791,-1.768252,2.029583,-1.783228,0.075336,-1.461807,1.802897,0.629207,15.200197,19.716742,29.27816,-71.967144,48.214598,2.016208,0.658674,1.837992,2.381285,0.760471,0.487948,1.188633,1.10164,1.505539,1.596032,1.509076,0.288441,0.583003,1.273284,1.83923,0.016729
5403,1.310682,-1.779922,-0.904775,0.328941,0.887597,-1.586938,0.453545,-1.911519,2.165682,0.121196,1.196918,-0.587286,61.84398,61.772718,64.068211,-55.571384,61.74916,0.89703,0.630124,1.236122,0.49632,2.408617,1.121332,1.721574,0.99141,0.619541,1.125646,2.240919,1.872095,1.808541,2.402278,0.331112,0.034858
4550,2.247654,1.814794,-2.049868,0.147124,-1.29928,0.205812,0.180998,-2.163821,-1.830891,0.117479,-0.01819,0.590628,-73.844181,0.846009,-31.12805,30.870404,-11.117556,2.083577,1.186111,1.469361,1.053727,1.743853,1.943968,1.527873,1.210015,0.466295,1.768408,0.638817,1.094614,0.421029,1.489319,1.228427,-0.006928
5549,-0.375089,1.052259,-0.280139,-0.62144,-1.896548,-0.674668,-1.132004,-1.681706,0.47361,0.732178,1.667567,2.218681,7.694417,20.059431,-61.148784,72.391608,35.758512,0.524757,1.09836,0.391204,1.964517,0.395769,2.194306,1.455912,2.25685,1.883153,0.897769,1.802327,1.453254,0.337138,2.270271,2.450158,0.037594
1183,-0.544514,-0.186537,-1.380426,-1.723842,-0.853095,1.82564,1.171294,2.296967,1.23655,1.054328,1.499062,2.310345,-3.460716,35.743385,-10.920486,59.393968,-15.57658,0.691423,0.988036,2.427885,0.966963,1.497681,2.27436,1.421998,1.515651,0.538366,0.314231,2.02476,0.382423,0.626542,1.797781,1.555806,-0.03187
6802,-2.006224,-1.458019,-0.498853,-0.883567,-1.375798,0.661146,0.059364,-1.296263,-0.916616,-0.771471,-2.324061,0.504353,-29.573183,63.516506,-28.080328,-46.080856,-30.943468,1.122086,0.904747,2.086087,0.619827,1.42595,0.443276,1.896464,1.866956,0.937344,0.948046,0.810385,2.393158,2.309214,2.216674,1.637408,0.017314
6325,-1.890753,-2.25426,0.265585,1.06072,0.562587,2.348686,-1.309273,1.907499,0.95081,0.559716,1.214071,0.247539,-20.533063,50.81204,47.953574,5.724047,54.058695,1.592237,0.720015,2.284278,1.60849,1.634213,1.971302,1.916257,1.529157,0.294088,0.994161,1.868106,2.264219,1.978203,0.906912,2.463337,-0.004385
2540,1.067934,-0.725308,0.697013,-0.299767,-0.646822,0.352389,-0.872698,2.230143,-0.32867,-1.031807,0.008536,2.100678,28.039109,-46.686655,-12.60338,-25.004358,51.757706,2.001452,2.397292,2.029081,1.016281,2.38526,2.314954,1.936505,2.087734,1.300039,1.51237,1.657355,1.658574,1.905413,1.519519,0.30566,0.009436
7262,-0.869495,-0.480678,-1.713054,1.39419,2.152573,1.284307,-2.110638,1.368642,1.587644,1.995371,-1.875925,1.918379,1.245551,-66.031614,56.668002,69.114481,7.077523,1.403909,1.249552,1.221281,0.824131,1.670517,2.385231,1.832969,1.214706,0.572868,1.946327,0.675246,1.360604,2.427646,1.44154,1.47019,0.029299
7995,1.31199,1.346447,0.83654,-2.034351,1.758956,1.954983,-2.097347,-1.444489,0.695052,-0.279476,1.094947,0.896633,-16.412047,12.732499,-54.893321,57.945751,-55.760678,1.829194,0.757546,0.823224,2.182318,2.47097,0.58568,1.272397,0.430308,2.184893,0.755004,0.854326,0.6587,2.278278,2.019748,1.660181,-0.001124
4466,0.754919,2.168458,-0.333607,0.806338,-0.706483,1.36296,0.348903,1.797781,-0.533056,-0.82756,2.165411,0.280233,70.069793,13.003585,1.25337,65.387996,-73.947276,2.396864,1.588416,1.766518,0.360966,2.248646,1.250719,0.580275,0.429822,0.760994,0.281378,1.127799,2.417669,0.261689,0.950751,1.277783,-0.054866
5992,-1.48463,-0.06871,-0.274732,0.726254,1.05695,-1.549648,0.43199,-1.328359,1.574629,0.01921,-2.295657,1.939461,29.346925,33.771979,5.65728,-18.091217,-9.081091,2.486418,1.473711,2.166507,2.227325,0.656524,1.700757,2.125984,0.669533,2.086959,1.76239,0.742423,0.903013,2.19717,2.342954,2.286204,0.00783
6983,-2.323084,-1.936487,1.940119,-2.153814,1.421455,-1.427107,0.679803,-2.097774,0.806032,-1.134479,-0.869939,1.486488,-53.487938,-21.770117,-40.36287,71.249357,37.943946,2.483528,2.41054,1.950549,1.871831,1.867767,1.065716,0.742936,0.521038,1.578544,2.343602,1.910934,2.071168,1.869489,0.745012,1.66169,-0.020249
7645,2.3407,1.12051,1.71213,1.919952,-1.801854,-1.949125,1.581105,0.47414,0.222029,-0.57118,-0.680149,0.986227,65.063007,13.965832,-26.253842,51.684479,11.033222,1.905321,2.23881,2.434673,0.300527,1.211335,2.413631,2.150047,2.338154,0.356378,1.646191,0.788603,0.798005,1.323911,2.225724,0.737369,0.008679
4368,-1.29051,1.517546,1.944076,-1.615587,-0.393675,-0.301117,0.22559,-1.976386,0.513343,-0.627029,-1.576961,-1.502952,-54.536165,60.667274,-65.130563,50.632648,32.907428,1.752163,2.102885,1.6804,1.978887,1.161387,2.177894,2.365376,1.131642,1.756986,2.169112,1.013965,1.716156,2.183049,1.256102,1.049991,-0.053102
5953,-0.894312,1.818036,0.594129,-0.027442,0.604147,-1.294488,0.648793,-0.207011,-1.492311,-1.930363,1.179793,-0.95306,-21.140536,41.006547,-52.960481,-6.808004,27.879384,0.907038,2.343538,0.844267,0.338715,1.786719,2.380557,2.015753,2.001891,0.776411,0.643014,1.888931,1.267419,2.269434,1.871692,1.768788,0.002183
4696,-1.360325,1.52909,-1.950992,-1.522901,2.296761,-2.225276,2.022798,2.000612,1.393159,-1.035836,-1.723488,0.397235,-36.103359,-39.146658,-37.873456,60.826889,67.527724,1.951984,1.247583,1.87752,0.727541,0.532544,1.460306,1.8666,1.694854,1.910189,0.80509,1.139472,0.607256,1.656366,0.789187,1.616722,0.034084
263,-1.944785,-0.866521,-2.340871,0.718377,0.626687,0.542421,-2.004477,-0.377704,-0.483516,-2.298697,-2.044241,0.472842,62.509609,-0.997098,41.767453,-14.41758,-66.273287,2.047898,2.264384,0.255265,0.98643,2.422233,0.471156,2.473027,1.411108,0.74131,2.439965,1.491507,1.99965,1.375197,2.428748,1.970835,0.00888
1263,0.286915,1.400806,0.247193,-1.747134,-1.183954,1.708806,-2.112979,-0.275312,0.405402,-0.518711,-0.060386,-1.748716,16.004448,36.749441,-52.136965,34.030941,8.026447,2.132497,2.129151,2.137889,0.498722,2.269467,2.434186,1.119813,0.951181,1.74377,0.539413,2.164493,2.12867,0.799694,0.46253,1.487922,-0.001339
5861,0.392994,-1.722636,0.581842,0.805308,0.828267,0.282694,1.14502,-1.054559,-0.673735,0.398424,0.000654,1.560068,10.472428,60.089574,-24.522309,53.546683,-40.9064,0.417137,1.329759,1.503117,1.392169,1.940927,2.159042,0.519912,0.659766,2.186985,2.159427,2.488805,1.100094,0.271651,1.884618,0.781656,-0.042178
4314,0.750799,-1.098327,-1.158265,-0.077208,-1.725882,-2.1444,-0.571764,-1.074541,-1.938825,0.342931,0.386332,-0.585817,-52.38072,-12.75992,44.021915,-73.676138,-24.847421,1.216028,0.277812,1.932696,1.072957,0.930297,1.752563,2.069154,1.767135,1.736577,1.149948,1.177584,2.161757,1.142448,1.123549,0.743448,-0.004709
7108,0.113904,1.151827,0.261977,1.672471,-0.178394,-1.188235,0.431751,-0.648047,-1.40249,-0.277952,-1.555683,-2.036686,6.702371,-3.241553,-30.777879,66.184648,-34.61627,2.19026,0.947866,2.282619,0.730788,1.106132,0.501424,0.44138,1.525424,0.550546,0.274463,1.891881,1.352284,2.085945,0.473971,0.289017,-0.072349
3761,1.494713,-0.110718,0.552039,-0.576771,-0.406479,1.267492,-1.970855,-0.777502,-0.023293,-0.364955,1.736618,-1.197252,-10.185218,-32.952891,-39.236541,-48.550947,4.231453,1.645541,1.112031,0.649494,0.543574,2.342255,1.776763,1.559231,1.742389,2.082146,1.883597,1.607346,0.407606,0.887518,0.507316,0.455143,0.046815
3050,2.0936,-0.273268,1.762207,0.0461,1.973638,0.426039,2.313509,1.217041,-1.667791,-1.271942,-2.139796,1.395142,-22.014183,57.622168,55.771239,-2.784565,-0.185313,1.906715,0.900785,0.75084,0.62356,1.170937,0.681697,1.781871,1.899841,2.375158,1.278956,0.414437,0.94553,1.26633,1.951063,1.51803,0.000973
2847,0.801607,-0.115729,1.150912,-0.974916,-0.43751,-1.911584,1.082932,1.599076,0.909231,-0.825605,2.034514,0.980299,43.691788,-72.125057,-55.833222,11.029466,-27.757074,1.177957,1.6649,2.48057,2.186298,1.860453,1.88327,0.612002,0.413128,1.443498,0.62731,1.19364,2.005645,0.883234,0.517994,2.175199,-0.013826
6896,-1.407834,-0.56189,-0.05869,-1.518395,-2.080296,-2.314557,0.004626,-2.354343,0.4961,1.733328,0.061309,-1.590948,-30.790588,2.579943,11.108828,-43.927744,6.406315,0.939034,2.348921,1.31076,1.689811,0.398785,1.12831,2.005158,1.698382,0.457234,2.479024,0.949962,1.510596,1.090285,1.915244,0.2534,-0.022845
1515,-1.301113,-2.319534,1.192598,2.210082,1.802498,-1.358299,-2.110551,-1.876478,2.055884,2.005447,-2.17352,0.088904,12.085882,27.420108,49.752386,-61.654049,-19.596661,1.958873,2.286681,1.503273,1.762033,1.485317,1.468338,1.848936,1.810147,2.39143,0.262377,1.264764,0.383179,2.082854,0.28393,1.253227,-0.02568
1979,1.701768,2.124761,0.372194,2.131369,-1.670677,2.055189,-0.256926,-1.599301,0.018477,-0.47634,0.49812,-2.007071,-49.862188,16.213787,-44.887475,-73.786513,70.076492,1.008894,1.985797,0.294888,0.939783,1.439874,0.462795,1.453684,0.809922,1.351117,0.478694,0.918323,0.759626,2.026584,1.795251,1.783833,-0.014963
3708,-1.219122,-0.323254,0.446335,-0.576232,-0.77224,-1.11055,0.760848,-1.846016,0.371408,-1.65625,-0.515734,-1.849731,-25.654831,69.247667,-4.467778,60.057255,32.281488,1.449649,0.499928,2.289268,2.235712,2.112262,1.783242,2.44114,0.982834,0.494916,1.307165,2.025314,0.693691,0.862114,1.056658,1.491922,-0.05129
4951,0.566606,-0.791557,-0.625174,1.335154,-0.456255,-1.219244,2.34372,0.04234,0.03087,0.47034,2.324844,-1.484481,-72.922815,36.242666,-19.520237,-26.617639,-62.661418,1.368189,1.653,0.477171,2.31573,1.470597,1.573757,0.631762,1.767289,2.077103,0.374939,0.85033,0.990761,0.96484,1.809484,2.499654,0.021392
5501,0.597406,-1.493347,-0.506736,-1.424251,1.545003,1.606596,0.074633,0.862667,-1.178998,0.179354,-1.533268,-2.287052,15.078172,68.843678,-44.299388,60.190009,13.487013,1.768455,1.418153,2.147366,2.276704,0.316818,0.507586,0.493772,2.326931,0.723765,2.311683,0.953764,2.415474,1.623522,2.276216,1.111785,-0.011098
3479,-0.377248,-2.247358,-1.540517,-1.605368,1.717164,1.696711,1.953266,2.041286,1.704638,-1.475473,-1.686548,-0.799598,28.58434,-33.005723,-27.178831,-44.612288,51.280751,1.00883,0.90992,1.275343,0.448451,1.108876,1.633011,2.017518,2.418859,2.256503,0.540553,1.071631,1.150162,0.266894,0.69331,1.2163,-0.016016
2407,1.547783,1.19841,0.927013,1.144623,1.698871,0.556389,1.853956,1.114127,-1.89321,-1.12362,-2.134643,-1.523287,16.413376,9.605524,40.04824,40.764858,-65.032786,2.034542,0.542098,2.29793,1.552805,1.746053,0.671274,2.102046,1.092829,1.93447,1.630764,2.498655,2.395677,1.890302,1.812698,0.264075,-0.005792
2263,-0.721562,-2.311412,1.035822,1.488519,-0.525639,1.315611,0.94713,-0.035719,-1.858984,-0.807867,-1.430439,1.221584,-22.767335,-0.596424,25.907793,-17.720093,-71.610754,1.945973,1.469964,2.186277,1.508953,0.475244,1.42687,2.403741,2.41814,1.427593,1.064075,2.413765,2.153231,1.856978,1.984019,1.913897,0.023334
5027,2.013939,-0.811806,-1.654514,0.392495,-0.681365,-0.592656,1.217151,0.180606,0.664219,-0.125072,-0.36111,0.384735,27.097226,23.082555,48.497436,-3.595155,26.231448,1.704305,0.997745,1.346297,0.462266,1.559704,0.689022,1.145711,1.964975,1.336521,0.412772,2.210182,0.534625,0.446683,0.654577,0.46767,0.008951
6081,0.549078,1.498991,1.112823,-0.259429,-1.255957,-2.085641,2.091175,1.373077,0.742198,0.427223,-1.349386,1.603716,-38.689682,-7.48281,-63.585059,-74.087622,-40.669097,1.742356,1.528632,0.472183,1.737637,0.971014,2.074227,1.533082,1.009945,1.642568,0.634513,0.766383,0.844476,1.615582,1.59403,1.607345,0.028809
2577,-0.7712,2.215277,-0.426332,2.174798,-2.166141,1.588762,1.924571,0.434098,1.111232,1.281419,1.189238,2.278755,46.370248,-55.250178,60.254627,49.522535,-24.752654,0.357065,1.936414,0.552007,2.330446,1.296924,0.89988,1.290605,0.443815,1.951464,1.496309,1.71665,1.47958,1.79533,0.856311,0.27155,0.041304
2943,0.273481,1.823354,0.442873,-2.211973,-0.587082,0.659166,-0.217568,0.148462,2.345302,-1.646253,-2.133369,1.030763,41.331699,11.871118,17.872387,-68.790833,32.471773,2.171235,0.688902,1.382964,2.484309,2.037786,1.065095,1.545901,0.455881,2.247508,2.371016,1.414499,1.487078,1.828251,0.668551,1.344887,0.050329
222,0.312287,-0.987282,-0.931146,0.079622,-0.119288,-2.114485,-2.016132,1.650896,0.062881,1.258808,-1.844234,2.04805,72.942578,-4.093119,56.941475,15.370532,32.530223,1.156846,2.358138,0.984377,1.676434,0.583469,2.36972,2.140262,2.13692,2.219336,1.376906,1.916155,2.063216,0.969616,1.082763,1.50337,-0.009573
6691,-1.311054,0.244798,0.401972,-1.623736,-0.682124,0.777746,-0.591554,0.889624,-0.499585,0.947293,-2.009775,0.109353,1.879141,-67.283027,24.160736,19.482638,-5.29672,0.295487,2.008165,0.476649,0.286034,0.630249,1.095068,1.306594,1.419071,1.831768,1.277546,1.461732,1.079377,0.844591,1.285686,1.029013,-0.021605
3601,-0.931441,-0.180235,0.855895,-1.897399,-0.8481,0.962036,0.729488,-1.13562,-1.195166,1.755229,0.587852,-1.856081,27.561601,27.820903,35.924843,38.83013,-32.012219,1.68455,1.987459,1.225576,1.011575,2.046684,2.113728,1.674806,2.461895,1.074629,2.038769,1.83675,1.756463,2.364464,1.548264,1.928799,-0.03411
5061,1.374451,0.258216,-0.278853,2.14309,2.119723,0.525473,0.604341,1.957449,1.65221,-1.414894,-1.413462,-0.901217,-36.351731,-13.538318,11.491236,-66.800217,38.750522,1.075286,1.83637,2.118502,0.906404,0.678236,2.104621,1.61975,1.885266,0.421829,1.433655,1.695113,1.761578,0.598573,1.959263,2.088092,-0.04021
6377,1.823215,-1.886082,0.859347,-0.421611,1.420073,-1.091754,0.927428,-1.299376,-1.406584,1.592077,1.092058,-0.535538,-3.888384,47.920942,57.263829,33.172304,-23.089007,1.270965,1.101573,0.388403,2.142152,2.405386,0.818611,1.137534,1.789028,0.690712,0.292993,0.589505,0.310331,1.731932,1.831657,1.650109,0.00512
2118,1.764082,-1.427593,1.922886,0.378777,-0.326266,1.6745,0.936251,0.898127,1.030638,-0.814249,-0.29713,1.26418,-34.711918,-53.207501,41.533982,-38.365816,35.735096,1.371441,2.302062,1.252949,2.070435,0.793714,1.204967,1.134048,1.694455,1.954028,1.849408,0.746056,1.21534,2.225563,0.278596,1.614037,0.043221
4532,0.351746,-2.260034,2.170836,1.918807,-2.203425,1.697356,-1.348515,2.102216,-1.546774,1.619899,2.167,-1.293512,-57.519243,24.088419,4.059623,-19.911782,-7.31614,1.939465,2.333935,1.452284,2.040565,0.520728,0.872839,1.299587,0.658679,1.915244,0.257908,0.401705,0.708737,1.750841,2.393028,2.371185,-0.00467
5736,0.964815,0.317245,2.2183,-1.462606,-2.207003,-1.883262,1.128184,-1.26957,0.038081,-0.850601,1.342998,-0.580386,3.192912,-36.722391,56.769973,-17.071483,29.57933,1.971979,2.054017,1.620679,1.75705,0.983279,1.220095,1.133026,0.258787,1.682907,1.368474,1.942157,0.336834,1.669218,0.796562,1.815086,-0.02094
239,1.565109,0.23617,1.484767,-2.338623,0.801383,0.841262,1.927148,1.325048,-0.671637,-2.024443,-1.363494,0.100319,-31.027534,70.241515,49.141212,16.347824,-42.121085,2.438796,2.100904,2.145718,1.583725,1.659381,1.962326,1.808634,1.711918,0.714417,0.462538,1.632019,1.096958,1.57034,1.70106,0.462387,-0.006125
6324,0.084884,-1.209311,-0.354083,0.666829,1.340445,-1.073317,-0.210021,-0.238697,-1.543794,-0.129615,-1.316078,0.632454,-47.41509,44.5751,73.698356,-51.733806,59.930048,1.289849,1.235496,1.225872,1.486123,1.523472,1.496088,0.255096,0.393544,0.794148,1.743698,1.585181,1.392338,0.271151,2.491871,0.86686,0.012172
2304,0.309169,-1.554663,0.971449,-1.290027,0.223309,2.092739,-0.599129,0.813559,-1.863008,2.244674,-1.157264,-2.114792,71.518888,67.956043,37.208187,7.997015,5.829052,1.658164,1.754897,0.80306,0.776377,2.318756,0.586611,1.165805,2.180666,1.708838,0.693231,2.137412,1.477267,1.171763,1.077026,1.830714,-0.013254
93,-1.836909,-2.06998,1.405911,1.225974,-2.329338,1.339307,-1.348055,0.413243,-0.686288,1.487649,-1.019419,0.878025,-71.275517,-27.61724,-62.9562,-4.848687,-41.873668,1.81404,0.316715,1.029987,0.993764,1.941405,1.199656,1.872121,2.238755,1.501607,0.766771,0.628119,1.300916,0.490427,2.359741,0.91195,-0.016481
7213,1.615464,-1.683125,0.186191,0.286655,1.752176,1.108162,1.51889,0.967255,-1.093911,-2.338922,0.489562,0.229579,-28.931775,43.651832,6.338416,29.754715,-12.498019,0.561937,0.480345,1.655009,0.489841,1.499766,1.312051,0.887482,2.164762,2.150358,0.822563,2.315231,2.080966,2.293886,1.08343,1.450034,0.008353
4961,1.078101,0.505515,-0.241745,-0.921655,-0.63844,-0.148308,0.233816,-0.384492,-1.467902,-1.679303,-1.554453,-0.208672,-36.313913,22.068131,-50.928289,-51.746397,-1.69302,2.056244,0.800333,2.202302,0.842506,2.248594,0.376169,1.271677,1.818698,2.110653,1.739201,0.252482,1.464075,2.202767,1.903177,2.204819,0.048631
101,-1.40849,-2.154063,1.951329,-2.248957,-0.155086,-0.575017,0.799784,2.232594,-1.537903,-0.078408,1.673904,0.340747,44.147158,-68.714254,-30.462237,-28.813083,-61.49156,1.545267,1.045967,1.82163,1.886315,2.293663,1.838594,1.249554,1.251992,1.728412,1.165802,2.128349,2.161609,0.910554,0.675942,1.811476,0.029756
5198,-1.154369,-0.566926,0.12885,-2.109518,1.34682,-2.3124,-1.432487,-0.221891,-1.816348,-0.509488,-0.549411,2.330807,-6.71412,-44.211874,31.036368,-71.759637,-64.22456,1.042373,2.161359,1.211626,0.554341,1.061164,0.737402,2.011792,0.692001,1.712578,0.549245,0.903779,1.568676,0.730082,0.484061,1.121381,0.020434
8044,1.22523,-0.70302,-1.691265,0.045818,1.950889,-0.217766,1.525048,0.790864,-1.599986,-2.072731,2.297975,-0.683015,-1.845988,24.485691,-68.988099,17.013964,53.696582,0.301856,1.037308,0.28324,0.917361,0.338149,1.277046,2.063402,1.845254,0.690943,1.928809,0.995931,2.369617,0.398382,1.113333,2.292999,0.00292
3621,2.115031,1.781226,-0.748774,2.139542,-0.957581,-1.25691,0.747205,-0.235381,-2.352224,-1.597937,-0.61609,-1.506576,-43.454973,2.264667,-37.74074,41.379695,68.52991,0.357951,1.084365,1.426698,1.764155,1.154073,0.753178,1.660893,0.372889,2.403608,2.443659,0.573607,0.868953,1.245419,1.504109,2.306407,-0.023663
8185,0.364806,0.481073,-1.060291,1.944791,0.977643,-0.84774,2.292065,-1.037384,0.530526,0.703992,-0.821935,-2.252535,31.180432,-50.475474,58.712901,-62.280253,-44.214726,1.121468,1.771053,2.339135,1.091564,0.923545,0.765286,0.403809,2.319559,0.582754,1.596879,2.250499,0.885583,1.74195,1.461479,1.330475,0.035931
1197,-0.013207,-0.481427,-0.177315,-1.904082,-0.066407,0.72624,0.825596,-2.193102,0.845804,-1.857454,1.344286,2.229434,60.295352,-16.020385,-4.606147,-15.508456,49.377466,0.431102,2.036147,0.527007,0.652829,0.345553,1.957131,2.252399,1.326409,1.447933,0.918118,1.805203,0.298809,1.579127,0.891979,1.242671,0.016541
5979,0.03319,1.757728,0.173845,0.12362,-0.475465,1.065699,-0.593483,1.460805,0.205182,-0.974468,-2.326452,-1.98362,46.452628,-20.678975,-1.530288,-69.542353,1.668562,1.277707,1.92982,2.238777,1.878482,1.153191,1.674607,1.368693,1.130361,0.479879,0.571921,1.776506,1.740402,2.428989,1.519397,0.501972,0.06795
7013,2.153963,1.076784,1.929887,0.231172,2.298693,1.960743,0.462321,-0.505075,-1.777755,-2.184075,1.755456,-0.316622,-37.317686,-48.351702,52.941548,-11.400822,-63.615492,1.591371,1.916642,1.255323,1.465906,1.475073,0.293933,0.631025,0.630446,2.147698,1.108968,0.919971,1.454313,2.392143,1.001373,1.569362,-0.007087
6743,-1.765519,0.841771,1.061061,1.578244,-0.49311,1.394699,1.291539,1.634941,0.508572,-0.701828,-0.521022,-1.194608,54.270194,-30.84756,-54.93916,37.534005,-65.973026,1.245304,1.826239,0.603054,0.780781,2.087289,0.569842,0.587903,0.391968,1.309961,1.762062,1.976441,0.543388,1.471917,1.252551,2.117496,-0.038313
4949,-1.397152,-0.091748,-1.050564,0.488737,0.508786,-1.81538,1.63427,-1.348516,2.081342,1.043211,-1.549712,-0.641465,26.887776,-47.154162,-69.999498,-31.554839,57.823363,1.183855,1.799569,2.357186,0.717916,0.762982,2.187336,1.299643,1.590846,2.105039,1.885413,0.634318,1.983317,1.353688,0.939087,0.982152,0.033448
7535,1.694958,0.761165,-1.230481,1.99006,-1.601303,-0.638218,-1.126765,1.554628,-1.564309,-0.924534,-1.898819,-1.154365,-15.930341,8.765572,22.970548,-33.998728,-66.621701,1.961059,0.761451,1.214752,1.339015,1.825022,0.397052,1.247969,1.610818,0.263168,1.058805,1.581066,1.967551,1.873655,1.020382,1.566193,-0.005313
7503,-0.808332,0.173302,0.437305,-1.543861,-1.264108,2.294078,-0.193703,0.693623,-0.734297,0.413709,-2.282358,-0.744661,18.812249,-22.526093,3.947305,42.355039,-38.853622,0.432531,1.305046,2.401338,0.28519,2.18491,1.025307,1.090684,1.877516,0.657209,1.968211,1.713078,2.207189,1.982075,0.733462,1.038646,-0.012846
5046,1.92474,-1.445469,-1.6337,1.492523,0.79638,1.578992,-2.053485,0.606187,0.002828,0.410367,-1.9023,1.612374,-56.841651,12.369029,-13.732194,53.023092,9.102874,1.255034,1.113602,2.302766,1.838903,1.93647,1.506662,2.46119,0.467421,0.448985,1.088649,1.421144,0.668466,2.155324,1.032761,0.368007,-0.044173
4447,0.188797,1.665502,0.503689,2.05668,1.240334,-1.315874,-0.645807,-1.444326,-1.266981,1.129589,-1.20801,-2.048902,71.18237,-37.913317,-9.111885,6.555112,71.764651,1.352243,1.396381,0.725418,0.85419,0.627253,2.493616,0.962387,1.092186,2.375105,0.392168,2.413623,2.006584,0.901844,0.544118,2.495286,0.006504
7745,0.354772,1.477008,-0.795241,-1.285519,0.58763,-0.877219,1.651102,-1.189896,0.798015,0.781737,0.519469,-1.333657,65.877907,59.975075,1.085407,-57.567352,-34.478051,1.035991,0.653136,1.011092,0.666332,2.29924,1.075193,0.26486,0.25814,2.063424,2.222358,0.424842,0.326753,0.979225,0.592992,0.423077,0.052101
4509,0.082942,-0.862292,-1.942724,0.77541,-2.159459,0.795563,1.972862,1.521457,1.702936,-1.812195,-1.396124,-1.672303,-54.544479,70.944277,10.468386,-7.843702,20.899719,0.798546,1.42024,1.223251,2.429479,0.758803,1.696885,2.289415,2.442971,0.261796,0.50856,1.125697,0.844707,0.993826,0.737646,1.618482,-0.001265
3790,0.860818,0.731144,-1.569156,-2.271171,-1.222812,-1.079453,0.326918,-0.140636,1.948757,1.660775,1.163447,2.349807,-42.023733,57.12243,56.688626,-34.265799,-55.284741,0.315406,1.521018,0.746495,1.839864,2.343929,0.672021,1.153907,2.463613,0.699758,1.584491,1.049112,0.668077,2.372386,1.935829,1.976088,0.008731
7795,1.684662,2.086674,1.126259,-0.626102,-0.13335,1.876088,0.81077,-1.618794,2.254633,1.288016,-1.027122,-1.349413,36.256018,54.890728,48.458242,-62.334394,-54.166331,1.022031,2.277486,2.213909,2.419078,1.444037,0.687117,0.620079,1.16552,1.890611,0.255214,2.384032,1.931344,0.850897,1.531883,1.116596,0.065844
1886,-0.650222,-0.253268,-1.392406,-0.445578,-0.844402,1.853034,-0.232043,1.903947,-2.190335,0.229166,1.5793,-1.584219,-31.01135,42.232891,8.200109,-30.768868,67.643677,1.934125,0.336819,1.410062,1.152899,1.267151,2.249594,1.424625,0.677845,2.287415,0.334612,0.325445,1.498343,2.15196,0.750135,2.274294,0.020188
4414,-2.195867,1.499358,-2.140085,1.261234,1.233353,-0.836967,-0.424714,1.109161,-0.537946,1.816949,1.178015,2.156781,42.109261,30.347203,45.436519,1.573627,47.947627,2.211602,1.899495,1.05869,1.907493,0.478443,1.191961,0.782308,0.751815,1.250273,2.084546,1.718614,0.746846,0.991578,1.207866,0.350086,-0.004772
7676,-1.695612,-2.343233,-1.277014,2.160745,1.972066,2.275137,1.897498,-2.197383,-0.4276,-0.287714,-0.702152,-1.251368,-11.119021,22.615956,6.37213,-3.613411,19.401772,1.158769,0.931527,2.171867,2.315729,1.449959,1.208609,1.600527,0.556891,1.169898,1.229565,0.543677,1.824502,0.660217,0.774318,1.454676,0.002693
1193,-1.141755,-0.634071,-2.118069,-1.001974,1.893892,-1.543515,-0.14998,0.422536,-0.005156,-1.826839,2.251948,-1.423301,-42.265892,37.151754,-40.469719,-74.563115,67.728205,0.744233,2.068642,2.167653,1.251108,0.367211,1.459679,0.328331,0.510817,0.799011,2.483254,2.292159,1.311192,2.204276,0.267006,0.321891,-0.023696
2825,-1.944497,-0.747181,0.647193,1.178568,2.017469,1.970304,0.93625,0.885808,1.34344,2.144295,-1.188451,1.526861,-54.567153,-10.142773,-69.588333,-21.115748,7.62101,1.169629,1.210658,2.282492,0.839494,1.117295,1.385272,0.765286,0.409268,1.817166,1.117466,2.005346,0.355647,0.609615,0.80557,2.469619,-0.003116
3305,2.182988,-1.177581,0.424285,1.119859,0.185605,-0.135582,2.073819,1.84801,0.143,0.07872,-1.131392,-0.818263,-57.178811,45.726281,71.605466,23.074921,70.199373,0.488004,2.131067,0.586128,2.048326,0.462955,1.891079,1.361001,2.339837,1.635044,2.434004,0.308149,1.065766,1.575135,1.29578,1.920368,-0.024483
5059,-1.825913,-1.036599,-0.420504,1.175269,-1.586943,0.375173,0.360796,-0.950667,1.857569,0.582519,-1.945731,2.085155,-26.355784,-11.661149,61.068035,70.46196,4.166724,1.077062,2.438218,1.382878,1.029567,0.688339,0.914621,1.535329,0.530093,0.770831,1.358888,0.577522,1.409051,2.166832,0.952894,1.287896,0.012142
6119,-1.362759,-1.688976,0.804741,0.718964,1.066774,-1.36122,0.615495,0.935341,-0.257813,2.339235,0.061728,0.734866,-8.989875,-42.830095,4.59519,-18.649926,50.698631,0.503389,1.959914,1.780794,1.810163,0.40432,1.899565,2.236438,0.805772,1.367551,2.177738,1.993646,1.71549,2.235822,1.702032,1.048598,0.008614
5310,-2.030049,-1.333054,-1.935558,-1.300298,1.944144,-0.481795,-1.643951,-1.154932,-0.611539,-0.419353,1.659896,0.530294,48.672677,-58.324221,-5.185113,3.797203,69.585954,1.091998,1.454211,0.666728,2.200407,0.497722,1.208579,1.080242,1.872042,0.911487,0.60677,2.476884,0.996234,0.704698,1.366237,0.34856,-0.000478
763,1.347968,-1.870739,-0.453402,-0.38838,-0.839918,1.815316,2.012593,0.131602,1.719843,-0.388007,0.7097,0.877781,-51.788834,35.073906,-12.869656,-0.313655,-21.601477,0.534733,2.255848,0.791413,0.771863,0.708375,2.41474,0.531687,0.57063,0.332022,1.793189,0.877208,0.487259,0.854581,0.443737,0.644393,0.002406
6827,0.365109,0.854707,1.706523,1.9276,-0.493598,-2.105439,-0.782149,1.9821,1.284107,-0.749542,-1.344436,-0.035383,-29.513519,16.288068,3.562427,23.717624,72.104528,1.536957,0.895063,1.330914,0.668391,0.891643,2.349568,0.932461,2.126889,2.380209,0.665704,0.734663,0.976881,1.686392,1.433886,1.069042,-0.015342
6732,-0.045258,-1.953999,-0.22315,0.580535,-2.298822,0.582128,0.902446,-1.771377,1.334742,2.029788,1.665099,-1.566208,4.772219,-43.309299,50.617894,-65.055429,-36.597543,2.201538,1.498454,1.763143,2.15288,0.459261,0.553008,1.16125,2.131655,1.474295,0.730222,0.590243,1.460381,0.881355,0.431609,1.552566,-0.04947
7801,1.337535,1.850706,-1.663636,-2.13125,-1.050217,1.608619,1.087191,-2.218565,1.702892,2.164051,0.98716,-1.11733,-3.039458,65.835465,-53.335481,-9.424648,-0.062585,1.34696,0.362283,1.894951,1.19021,0.605109,1.563401,2.077385,0.607288,2.192957,1.283018,1.178822,0.45982,0.948713,0.775134,1.677451,0.011338
2603,-1.6561,2.017173,1.694994,1.372651,-1.718084,1.689607,0.374071,0.685004,0.491042,1.553388,1.154766,-2.176103,-29.209084,32.922151,-27.413008,69.581354,53.80943,1.751314,1.341387,1.188832,2.192288,1.285603,1.888686,1.639299,1.953086,1.771631,0.794254,1.269018,2.136853,1.081315,1.914439,2.479662,0.012064
1320,1.792514,0.479701,-0.569486,-0.485271,1.193746,-2.069313,-1.513194,0.514495,-0.1105,-0.495569,-2.240564,-0.455225,62.291872,-60.507187,55.715397,-41.327854,52.760996,0.685998,2.071643,0.849703,1.704341,1.606605,1.460063,2.283912,2.205367,0.599024,0.544571,1.097938,2.296035,1.20596,2.078715,0.462246,0.024157
2157,-1.608924,-1.493096,-0.998586,2.297884,-2.195427,-0.536848,1.41459,1.015376,1.859295,1.317887,1.495831,-0.162081,-10.835572,-13.450771,-17.102429,-40.518126,11.856452,2.44576,2.142801,2.05137,2.134561,0.823371,2.403119,0.963762,1.697107,1.536346,1.862693,1.287936,0.584432,0.553171,1.642616,1.444912,-0.031607
7124,0.043995,-0.42638,1.379204,0.033763,1.975129,1.921528,1.118123,-0.715137,2.004955,-1.024041,-1.406647,0.537136,-41.27252,-67.24211,-38.144415,6.812101,40.97897,0.37813,0.474352,2.183581,1.201483,1.078198,1.273862,0.306675,1.042149,0.650164,0.564285,1.687502,2.095427,2.341638,0.410766,2.252102,0.005393
4302,0.276136,-0.680294,-1.449756,1.709874,1.70388,-0.076525,0.32295,-0.851539,-0.28841,1.740599,-0.266908,0.267097,-57.743706,1.535819,12.503185,-8.974776,60.942668,2.326209,2.100762,2.001307,2.215513,2.3837,0.85299,0.700869,2.260015,1.063966,0.572763,2.420673,1.250334,0.869499,1.427065,1.177949,-0.004425
533,-1.918571,1.452376,-0.084368,0.462829,-1.38584,1.528882,-0.737531,-2.095451,2.143505,-0.324608,1.266081,-2.131993,18.877899,30.845228,15.741964,-24.815252,-69.94239,1.798873,1.901858,0.283333,2.480665,1.53114,2.117845,1.124616,0.668585,1.905233,0.75857,2.285113,2.137914,0.918634,1.482183,0.554341,0.000153
2166,1.734285,2.003844,-0.835776,0.749992,-0.526765,1.234166,-1.306295,0.11749,0.160904,-0.599254,-1.285775,0.992809,-13.472319,70.741726,56.180895,-17.701737,-63.090582,1.173942,1.697426,2.387135,2.32134,1.262752,0.331839,0.970607,1.996579,1.499199,0.794014,1.739316,2.191076,1.157082,1.829976,0.405518,0.018262
4094,-0.114225,-1.835408,-0.406683,-2.160108,-0.686336,0.67472,2.015707,0.630569,-0.194989,-2.071387,1.328455,0.048278,27.712951,21.562702,4.325821,-45.919662,-21.766702,1.630548,1.113121,0.969062,0.772516,0.433479,1.479075,2.320628,0.543567,2.232267,0.460458,0.409835,2.35276,0.587775,0.490671,1.965832,0.035038
6757,0.94368,-1.478573,-1.944167,0.093992,1.079208,0.259753,1.996335,0.195508,1.375616,1.005287,1.9463,-1.945647,-39.185009,67.551076,-19.058798,-71.225331,65.857967,1.747814,1.005143,1.946788,1.661958,0.284731,1.224171,2.142215,1.209322,2.321966,0.539346,1.044381,2.157546,2.37708,2.090986,1.957712,0.025564
7115,-1.670706,1.568287,1.807671,0.749997,-0.448246,1.44128,1.915711,2.31408,1.392951,0.174085,-0.541275,-2.29181,19.834885,64.918044,-22.430659,-42.083317,-44.307301,0.282995,1.292023,1.783486,2.044677,2.138989,0.98866,1.661636,1.608768,1.812185,0.639377,1.512735,1.042023,0.777659,1.364794,0.840827,0.038773
5571,1.929972,1.663884,1.584558,1.960513,1.318443,1.421688,-2.213598,0.371011,1.084677,-2.072092,-1.10202,-1.965728,18.112407,65.219242,-60.198843,-11.954803,-74.378947,1.5706,1.581645,0.457588,1.689835,0.805737,0.764449,2.092899,0.358617,1.021661,0.559315,1.402394,0.528712,2.305147,1.359101,1.902674,0.024298
3862,2.041232,0.796483,-1.411833,-1.806496,0.138882,1.555598,0.607699,1.848096,1.591829,1.636021,-0.191378,2.064694,-22.955636,-15.372362,-63.289028,-48.694461,-7.799594,1.558383,0.996194,2.279838,1.244303,0.757233,2.311539,0.781389,1.062746,0.320025,0.409959,2.176681,2.233562,1.978408,2.102265,0.2717,0.054877
811,0.542891,1.180662,-0.491735,0.936202,0.079408,0.995959,0.681712,1.709035,1.735874,0.441126,1.422425,0.749475,6.497209,-1.404452,-54.630023,-16.802409,51.905541,1.021301,1.255332,1.622136,1.482399,1.937375,0.954958,2.230039,1.260975,1.963597,0.667449,0.819167,1.481732,1.969844,2.158981,1.749539,0.014876
6924,-0.107989,-0.696737,0.231937,1.022927,1.535608,-0.796837,0.169765,2.242706,-1.245698,0.694807,0.319476,2.017986,39.280646,39.813381,-6.511045,68.867369,53.868714,0.94704,1.905621,0.526329,0.514505,2.03331,2.340587,0.740472,1.865179,0.314066,1.500321,1.650948,1.984331,0.399327,1.236102,2.422661,-0.002339
4350,0.451342,-1.238282,-1.901998,1.974501,0.793575,1.55486,2.343959,-0.644573,0.438493,-0.426395,1.121296,0.770062,70.667585,10.108252,-60.602725,-50.002001,66.369504,2.458885,2.233902,0.939765,1.138349,1.989316,0.936337,2.010951,2.310953,2.192863,1.942156,0.308395,0.69378,2.365722,2.445169,1.203126,0.049736
4251,-0.269685,0.72072,2.303022,-0.677816,-2.21664,1.080999,2.098007,-1.602334,0.87728,-0.617662,0.34337,-1.661639,-49.581479,-65.921297,-39.24438,-30.299265,10.25963,0.379042,2.305194,2.143526,0.737873,0.926781,1.165404,2.192738,2.091274,2.297813,1.83461,1.794247,0.655835,1.370245,2.456047,1.780894,-0.004271
3393,0.026972,0.931032,-1.981459,0.076306,0.702419,1.020155,2.080696,-0.385026,-1.021889,1.764808,1.355427,0.966752,-3.651368,-18.550239,-73.870978,0.466242,36.123459,0.279655,1.404973,1.135737,0.82809,0.70954,1.736437,1.044048,1.073944,1.780965,2.435749,0.380168,0.98496,2.479197,1.609252,0.953929,0.000261
1487,-1.772686,-1.807301,0.742936,-1.307268,-2.090293,-0.687443,0.918602,1.151632,1.700559,0.660061,0.680979,-1.170613,-8.661459,-73.141909,-46.059767,23.504187,-65.127475,0.662893,0.735482,1.251903,2.486356,0.427066,1.6906,2.421871,1.133769,1.506604,1.502379,2.490111,0.552061,0.996324,2.223697,0.423809,0.025134
4844,0.817203,-1.875149,0.824363,0.642333,-0.397653,-1.183553,-0.985467,1.306197,-1.773553,-2.240486,0.854748,-2.328032,-8.69133,24.820765,12.597993,-65.538125,-49.274955,1.162369,0.69004,0.257525,0.729758,1.797832,2.414701,2.130653,0.382608,1.492196,2.346627,1.017756,2.422084,2.459942,2.001981,2.292698,0.067333
5738,0.972919,-0.135796,-1.533575,1.969901,-1.118858,-2.214817,-1.268173,-0.045116,0.427917,0.891375,0.647115,-0.130557,54.418858,67.739218,-6.960652,12.317277,16.471345,0.383507,0.848079,1.417274,0.873665,1.695938,2.123203,1.179931,1.103136,1.902685,0.675017,2.015783,0.266154,1.742932,2.21313,0.58045,-0.006851
6719,-0.022853,2.322034,-1.5861,0.40584,2.117824,1.59462,1.418509,0.898339,-0.106075,-1.513397,1.810238,1.488444,-57.33168,26.447431,51.978666,5.438657,57.505897,2.149147,0.71225,2.279185,1.512966,0.423049,1.682959,2.243622,2.313396,0.501765,1.656295,1.845433,1.440781,2.198582,1.321422,0.89187,-0.009667
3768,-1.525506,0.930159,2.183083,0.419103,-1.152187,-1.607607,1.788578,0.298002,-0.753361,0.446403,0.567998,-0.961314,62.918264,-32.730007,-43.22942,43.135667,31.162626,0.628897,0.876548,0.646145,0.505612,1.067106,1.600551,0.958613,0.65591,0.384049,0.960961,1.867223,0.921032,1.289184,1.321444,1.260486,-0.026714
2513,-2.198982,0.973358,-2.191255,-1.10192,-0.283332,2.262093,-0.552398,-0.745772,0.769865,-1.105795,0.571101,-0.642621,8.46099,3.864116,-5.810567,-8.206712,69.788995,0.52954,0.480324,1.310183,1.000664,0.907072,0.666563,1.679385,0.682492,1.63809,1.88257,2.355238,1.729317,0.634102,0.607784,1.532367,0.008209
1650,-0.69477,0.305434,1.640158,-1.344405,0.482609,1.185061,-1.954052,-1.108107,-0.593917,-1.119339,-0.878315,2.081195,-45.236083,67.151233,10.777974,-54.586973,-43.259658,1.148797,2.084703,2.103938,1.394136,1.249188,1.850225,0.982144,2.397693,2.021166,0.73041,1.507105,0.910976,1.018928,1.870991,1.237512,0.047104
6533,-1.597584,0.589135,0.855193,0.449831,1.630794,1.494639,-1.34195,-0.661493,-1.180316,1.591554,1.73188,-0.714892,44.631184,-33.697644,43.701263,-62.867443,-13.112965,0.78085,0.999699,0.436942,1.179481,0.28815,2.430706,1.120472,0.766303,1.755745,1.550769,1.281247,0.667679,2.435524,1.102333,1.905397,-0.006997
315,1.958762,0.166985,-2.063821,1.262418,2.283032,-2.063395,-1.01842,-1.184454,-1.979868,-1.45901,1.700416,-1.738267,56.052476,73.963671,57.424213,28.75584,-0.598926,1.13278,0.637323,0.739448,0.41074,1.79956,2.200022,0.774708,1.263606,1.169374,1.417556,1.116686,2.390339,2.183317,1.263368,1.6816,0.006623
8027,1.363844,1.071344,0.040744,1.489289,-1.735388,-1.688893,2.202158,0.562479,0.52795,-0.166637,-1.502132,-2.063765,69.869821,-47.921516,-66.912568,-49.534416,-24.932461,2.276808,2.067097,0.954104,1.373521,1.269121,1.62278,1.070414,0.952929,1.872174,0.872602,1.827098,1.537018,1.904818,0.520571,0.489258,-0.021142
7075,-2.266709,-1.624102,-2.131206,-0.301572,2.011818,1.240039,-1.563412,0.016574,0.526606,0.792372,0.178048,0.082368,-34.500329,52.965164,-64.484157,-35.228475,-34.978572,0.852175,0.509456,0.428241,1.202443,1.460564,1.696189,1.839828,1.741356,0.465983,1.022236,1.228669,1.23504,0.314598,1.454737,0.506647,-0.018928
5708,0.899402,-1.09672,2.285864,-1.599754,1.821523,-2.06075,1.04158,-0.682716,0.263122,2.076108,-2.099593,-1.491795,64.580884,10.91955,74.870334,-4.300261,25.511028,2.332635,2.095002,1.942937,2.183739,1.594644,0.677699,2.081301,1.172479,1.857404,2.391367,1.457296,0.774006,0.724088,0.99992,1.899887,0.015525
7606,-0.408366,-2.175855,-1.46388,-0.041916,-2.329558,-2.355827,-0.888747,1.106737,1.12625,-0.785059,0.206569,-1.229088,58.49732,64.453183,-35.346781,-73.345554,-18.733747,1.253807,0.734482,2.436965,0.561605,1.65354,0.549463,2.327825,2.259861,0.742757,2.015917,0.270764,0.484518,2.049842,1.187142,0.789617,-0.06006
3742,-2.097641,-1.663961,1.829881,1.765205,-1.403756,1.999069,-0.97851,0.427059,0.60623,0.72444,-1.152437,-1.083597,43.595628,-38.27657,35.684983,57.511934,3.080629,1.766865,1.707739,2.46731,2.079422,1.091817,0.671778,1.574952,0.467651,2.062331,1.850086,0.88755,1.050388,1.862262,0.793827,0.845998,-0.004458
676,-1.342023,-1.884795,-1.071436,-1.579563,1.891038,2.317541,-1.695094,1.660994,0.129817,-0.007547,0.395439,1.675373,46.733149,44.028001,28.615291,37.197389,-23.476531,0.324151,2.248742,0.599875,1.347873,2.198602,1.648463,0.711423,1.894122,0.758817,1.930138,0.825884,1.876191,0.891003,0.586921,1.875807,0.017546
8161,2.312139,1.767262,0.178059,0.264449,0.810804,-1.052857,-0.349627,0.174333,-1.091802,0.126781,0.80309,1.251488,-74.679707,58.16774,-74.7931,-47.624395,-23.199833,0.33119,1.314409,2.273814,1.248417,2.391501,1.455021,0.795223,1.817017,0.859158,0.867704,0.505713,0.51491,2.0862,0.254677,2.348966,0.034362
3127,1.52474,0.333879,-0.952208,-0.49116,1.18071,0.320419,-0.978759,0.950257,0.687557,0.999021,0.296459,1.592117,56.031011,13.200137,4.695745,21.38447,8.784944,2.103295,1.825967,0.53058,2.209205,2.111653,0.546092,1.923501,1.786428,1.986906,0.929311,0.933943,2.28321,1.659915,1.941042,1.839166,-0.00989
586,-1.002051,0.600221,-1.312583,-1.883604,0.089476,0.577358,0.852726,1.384854,0.755361,0.180013,0.117656,-1.753811,-9.775569,-47.988632,5.0607,5.176938,8.791319,1.460481,0.301336,1.300421,1.171709,2.410883,0.964541,1.282425,2.470076,1.320151,2.02263,0.598942,1.41215,0.256307,0.505442,0.466596,0.001111
7182,1.179858,0.145327,1.49604,-1.361491,0.778294,-0.808279,1.076073,-0.590099,1.788159,-2.027849,-2.058108,-1.687705,-44.20395,14.20752,-14.21793,-10.743686,30.87463,2.273584,1.869028,2.010483,1.186606,0.795194,1.320434,2.2865,0.710011,0.654842,0.433696,0.625827,1.023778,2.382681,1.721788,2.3341,0.004423
1544,-2.102403,-1.592786,1.126051,0.593223,-1.108771,-2.32395,-2.352632,0.97024,1.960318,-1.962076,0.692599,0.906928,-58.778034,17.576245,53.943547,29.186456,36.773827,2.24068,2.356886,2.437863,2.1702,1.30203,1.222617,0.77395,2.02697,1.540065,1.377315,2.027331,0.854983,0.448747,1.59318,0.821652,-0.00344
518,-0.097703,-2.183525,1.575612,-2.308295,1.58963,-2.326862,0.548266,1.994431,1.177358,0.540709,2.218503,1.95581,-74.074971,21.969443,-59.574639,-20.956472,-15.428474,2.02949,1.145208,0.254731,1.006956,0.91542,1.472112,2.279929,0.513196,0.289044,1.719937,0.48243,0.698388,1.050413,2.285045,0.998027,-0.014145
1127,-0.004244,-0.651094,-0.772938,1.282412,-0.969094,-1.546207,1.721936,1.793159,1.899566,-0.433229,-0.640946,0.147791,15.48045,-70.074879,51.503114,-37.166599,-59.026324,2.04353,0.861491,1.830409,0.929087,1.662271,1.039655,1.476451,0.95744,1.201263,1.873512,0.862236,0.849164,1.645027,1.467047,0.403324,0.031591
2716,-0.662307,-0.736325,-0.677553,2.204863,-1.090143,-0.259805,1.836371,-2.265768,0.046842,0.300296,0.10761,-0.950173,22.957117,40.264912,-67.622004,26.982234,40.40919,0.733747,1.327627,1.671757,0.712474,1.544993,0.951834,1.469226,1.022949,1.955673,2.490862,1.924465,2.232962,0.887557,1.170501,2.355581,-0.022499
2266,-2.157502,0.692105,2.032582,1.495569,0.139242,-1.820454,1.163855,-0.215566,0.801026,-0.454837,-0.948791,0.398259,61.887277,39.472445,-36.621343,-44.911029,-19.659532,1.858803,1.149489,2.465191,2.458422,1.20056,1.313497,0.445315,2.401156,1.720004,1.60749,0.584278,2.454492,0.388134,2.120323,2.264837,0.049435
233,-1.017467,0.686164,1.137687,-1.769813,-0.640415,-0.363539,1.9741,-1.233172,-0.826847,0.017412,0.473884,0.631745,23.141397,-12.546109,37.543971,-48.484811,65.788765,2.301704,1.985278,0.559745,1.878294,2.494482,2.003503,0.882965,0.489755,2.305202,2.277498,2.40173,2.378687,2.088362,0.602308,1.734626,0.042856
1559,2.107858,-0.975281,-1.866012,-1.114966,1.932211,1.604419,1.184281,-0.911742,1.040825,0.751527,1.714972,-2.149628,34.629599,19.662334,14.854959,67.288444,66.875983,1.894689,1.287771,2.323518,1.868994,1.436401,0.593886,1.944699,0.301295,0.61091,2.311036,1.326393,1.179268,1.206042,1.196802,1.142418,0.036225
5261,-0.411097,-0.946664,-1.549545,2.17406,-0.445149,1.656596,1.616622,-1.068272,-0.241592,1.64035,1.885181,-1.868722,14.749748,-50.986557,18.944713,-46.200701,54.813225,0.563071,1.530946,1.11836,1.279592,2.105625,0.496409,1.649898,2.337827,1.604396,0.324784,1.652369,1.118025,2.392599,1.90872,0.851664,0.058166
4161,1.105741,-1.478887,2.192444,2.234581,-1.131482,-2.32813,-1.916533,-1.986006,-0.944273,0.923159,2.346142,-1.667072,44.007858,-9.925268,-13.981647,60.464472,-23.623162,1.607816,1.557663,2.38682,1.54252,2.142721,0.714664,2.355151,0.273466,0.889174,1.350256,1.758139,1.289358,1.99366,1.938477,1.477597,-0.031332
5799,-2.264144,-0.92213,0.800075,-2.295839,-1.121838,-0.463975,0.96782,-1.020162,-2.191965,1.094208,-2.094211,-0.574685,53.04214,29.247552,13.610301,-1.67738,8.282517,1.438956,0.775171,2.292158,1.294516,0.930134,1.260966,1.803123,1.333757,1.198739,2.204765,1.727216,1.315085,2.384967,1.894344,2.235268,0.004711
3365,-1.186724,2.277793,-0.586751,1.512436,0.89489,-1.531188,-0.327761,0.102188,2.163621,-1.532831,0.335063,0.096364,-46.592583,68.460955,-26.734367,-74.505227,-9.3457,1.027201,1.41888,0.87319,0.447656,1.25889,0.67013,0.877077,0.533328,1.135942,2.02929,2.276631,1.332069,2.08671,2.092201,2.12758,0.049389
7992,0.160311,-1.13442,0.125809,-1.393997,1.090954,-0.236667,-0.407353,0.726025,1.934685,0.759496,-1.018341,0.138059,59.010605,-8.754425,14.388036,19.724203,4.671857,2.423464,0.908598,1.558426,1.709266,1.135023,2.328617,2.058727,2.03369,1.981295,1.118296,2.452676,1.374439,0.94847,1.183095,0.283192,-0.012498
8034,-1.371276,1.263975,0.175436,-1.404024,2.218332,-0.910905,0.968077,-1.411954,0.879951,1.864661,1.972368,-2.073871,63.34389,70.765981,13.847469,-65.585816,49.196437,2.042806,2.188143,1.370326,1.5707,0.998861,2.110677,2.141398,0.979415,1.521582,1.233046,0.561508,2.267404,1.515816,1.073898,1.00052,-0.040146
2802,1.840932,-0.996096,1.740374,0.662976,-2.162385,-1.257276,-0.694094,2.240673,2.290307,-2.306971,0.27048,-1.492988,26.242641,60.074123,15.778801,-5.685268,-2.290402,2.203112,0.947352,0.390893,1.237223,1.004766,2.35477,0.613599,0.256845,0.540931,0.672242,0.377013,1.949424,0.974395,0.414699,0.849923,-0.004649
6620,0.93622,0.385519,-0.117854,-1.560565,0.748155,1.58541,2.143461,-1.073659,-1.243159,0.958892,-0.274858,-1.399377,6.580815,53.76145,-31.302329,-48.242208,-56.783594,0.447147,1.701002,1.742236,1.758824,1.561548,2.444,1.806255,2.220706,1.898412,0.864765,0.603316,0.68616,0.294204,0.682949,0.316674,0.038121
1010,0.128141,0.109219,-2.195089,0.44001,1.505063,-0.506717,-1.112571,-0.218148,-0.181388,0.320926,-1.889729,0.819449,-58.183254,-35.947088,37.289732,28.527712,65.252208,2.03297,1.126165,1.957344,1.32808,0.284904,1.885117,2.40579,0.869563,2.496022,0.885205,2.138363,1.717384,0.329021,0.855646,0.334448,-0.00675
3016,2.026028,-0.266568,1.271947,2.221524,0.903271,-2.035021,-0.072832,1.13281,1.093843,1.188017,0.602691,-2.207295,-66.470745,26.186565,17.606301,-40.898754,64.64483,1.909871,2.210006,2.071873,2.468719,1.014905,1.759067,1.134005,0.980714,0.852363,1.41084,0.729975,0.94159,0.304647,0.700731,2.188453,0.02253
2592,-1.305985,0.616408,2.144831,-1.600017,2.117941,-1.158804,0.292978,-0.363197,-1.706368,0.675896,-1.789363,0.64886,29.413496,-47.368706,74.157785,19.89085,-44.491289,1.148626,1.459751,1.532651,0.512772,2.157089,1.450891,1.13146,0.946044,0.918058,0.799922,2.032997,1.586702,2.199834,2.10656,0.45793,0.022591
1561,-1.842253,-2.349973,-1.458208,1.03632,0.448281,-0.844695,1.643373,0.851193,-0.806098,0.027757,-0.006314,2.262178,27.514124,-20.118922,-38.72663,-28.475862,56.192486,1.781742,1.994512,0.506183,1.67356,1.763994,0.694525,1.384389,1.681309,1.507342,0.390262,1.881158,1.124639,1.062488,0.484995,1.063337,0.03468
7798,-1.286198,-1.399242,-2.247909,-1.379851,-1.497,-0.643188,0.157466,-1.827793,0.354186,1.058348,-1.608505,0.838434,48.268314,45.557638,-62.780685,-54.972326,-69.878797,2.080971,2.377812,0.878901,1.933706,2.299496,0.880181,0.953682,1.032877,2.32229,1.484504,1.302792,0.532437,1.913115,0.48258,0.966804,0.010388
5965,0.981064,0.091246,2.05086,-2.315819,-2.34717,-1.472617,-0.802244,-1.164025,2.068321,-1.015342,-1.28812,-0.725422,-38.670057,22.348174,5.766442,16.58857,-45.901874,1.03298,1.789887,1.629218,1.274716,1.151676,0.976148,0.617749,0.257651,0.58675,1.256543,1.712726,0.793219,1.879962,1.277462,2.307071,0.014342
2647,-1.382368,-1.386597,-1.770286,0.824875,-0.171678,-1.410408,-1.406923,0.614629,0.508647,0.563924,1.255026,0.570925,35.149336,54.890638,46.952057,-26.781723,29.589412,2.263763,1.061664,2.383478,1.613032,1.481316,1.728217,2.395361,1.090898,0.965399,2.216001,1.582992,0.600969,1.738864,1.341399,1.393857,0.031328
800,-1.433373,-0.962256,0.282973,1.124102,0.810975,1.826729,0.62783,0.892248,1.193708,2.013445,0.309939,1.956201,-14.77516,73.883977,67.996291,-36.343457,-24.475084,0.583851,2.037212,0.423282,1.094731,2.395123,1.587733,1.531377,1.610515,1.916464,0.507335,0.771935,1.911339,2.127773,1.481143,1.077133,0.01539
6346,1.22784,0.753757,1.486814,-0.918678,2.27424,0.97295,0.374525,-1.11712,-1.277674,0.492192,2.027578,2.210801,-7.982907,-68.71589,-57.971533,72.438483,73.581191,0.311049,0.29295,2.11275,0.994208,0.410614,1.945069,2.017635,2.142583,0.639757,1.141152,1.839751,0.436997,2.115135,0.578029,0.930382,0.044049
7771,0.119132,-0.515308,0.593069,0.999827,-0.287458,-1.107369,-2.325198,0.231053,0.306682,-0.956288,1.618447,1.328396,-30.191769,16.942929,59.806257,13.758497,-60.938493,1.47616,0.562152,1.840539,2.445151,0.896495,0.63452,0.879928,1.194707,1.937597,2.440144,2.244426,2.312428,2.220283,1.544491,1.514076,-0.012253
1616,0.613894,2.292005,-2.05242,-0.331866,1.789361,-0.675525,-1.403872,0.061937,-0.463843,-1.523602,-0.051286,0.411642,21.471399,-30.205269,-59.962691,57.060405,64.235024,2.095663,1.813775,0.363227,2.010289,2.424742,2.140274,2.328756,2.15783,0.396761,0.868863,1.987356,1.737712,2.216874,0.495877,1.705309,0.020421
7978,-0.37684,-0.096839,-1.793897,-0.167288,1.681814,1.347237,-0.015243,-1.712984,-2.14487,0.942394,0.472458,0.223394,-37.901132,45.669372,15.127661,0.602811,-68.557791,2.113214,2.038486,1.578057,0.90764,1.204693,1.017938,0.983941,1.100918,0.621847,1.637922,1.302856,1.60525,1.185616,2.154429,1.736275,-0.002298
1430,1.556238,1.930826,1.873054,1.658767,0.404887,0.250932,-0.178412,-1.493314,0.05201,2.333834,-1.185208,-0.516341,65.922664,62.21047,71.361681,-24.221915,2.276837,1.627104,1.728239,0.513238,0.991745,1.754668,1.45079,1.673795,1.222783,1.309288,1.707699,1.801589,0.31074,1.858605,2.318244,0.977779,0.024724
1844,-1.974623,1.870301,-2.190584,0.756717,-0.594444,-0.548927,1.043504,-1.338834,-0.118969,-1.464059,1.651219,0.775782,-19.44352,62.752826,36.744915,21.781334,-71.115156,0.888525,1.68756,0.826126,1.447257,0.796875,0.324183,0.54088,2.071113,0.945245,0.987228,2.334574,0.92848,0.459971,1.226903,0.801642,-0.007943
3680,-0.052943,0.829908,-0.401337,-1.837887,0.343567,1.656498,-0.034314,-1.810701,0.15122,1.571995,-1.849932,0.53923,28.969714,-6.014441,15.298083,14.880214,41.763712,2.465492,0.782251,2.04996,0.927172,0.981853,2.001594,0.296281,1.846898,1.321075,1.804923,2.341553,1.229533,2.259286,2.325674,2.112114,-0.013799
6782,1.306094,1.220924,2.329722,0.402793,-1.965862,-1.676955,0.219468,-1.198062,0.210019,0.211664,-0.422209,0.79547,13.310056,52.1106,-27.147446,32.869348,-14.873975,2.32141,2.433791,1.21935,2.117053,1.304531,0.495823,0.804926,0.645868,0.351783,0.910222,1.85759,1.016742,1.126075,0.447766,0.85912,0.016079
4252,-2.071531,-1.087797,1.470523,-1.403965,-1.506276,-1.02127,-1.966119,-1.287154,1.374373,-1.038701,1.953311,-1.915008,2.689519,52.740779,64.268681,13.718149,10.926176,1.918687,1.879829,1.280952,2.457096,1.405034,2.158768,0.421605,2.164836,1.147081,2.496254,0.292944,2.015019,0.916079,1.289153,0.801546,-0.016471
7462,0.671261,0.419208,0.609355,1.405377,1.680212,-2.028735,1.89293,1.14203,0.530319,1.939028,-1.631961,-2.268597,-11.770348,25.76253,-59.163419,-9.582913,39.981077,0.804397,0.748683,0.366159,1.784437,2.276642,1.516756,1.115435,1.616594,0.603393,1.976713,0.612393,2.489368,1.556128,1.344575,0.764041,0.010265
3085,1.632528,-2.33685,2.326334,0.006361,-1.477721,-1.765608,-0.662895,-1.194668,0.702046,-0.531196,2.159276,0.834985,3.103932,-32.219465,-12.554691,43.300072,-55.689183,1.853471,1.532857,1.736741,1.65049,1.041307,2.252018,1.667387,1.521685,0.714167,0.753521,0.675325,0.432484,0.508716,1.497163,0.321459,-0.006296
65,1.876758,-2.061053,0.645338,-1.7185,-0.596486,-1.883824,1.107543,0.536358,-0.228857,-1.089455,1.879717,0.544114,-58.079122,64.200867,73.972994,64.107343,2.120687,0.510863,1.579422,1.339567,2.104664,2.338422,0.355738,2.14175,2.399319,2.362223,2.126781,0.564546,1.569619,0.839151,2.106825,0.416683,-0.061501
4864,2.2189,-0.795886,2.014086,1.654235,-0.362357,-1.728699,2.339611,1.675556,-0.16832,-1.524039,2.027482,0.601466,24.578581,-7.791786,-6.545025,-52.237275,-1.877001,0.673584,0.426183,0.362329,0.410992,1.543144,1.376243,2.008988,0.818199,0.972966,1.14647,1.222072,0.621377,0.483128,1.190307,2.239924,0.048829
3128,0.991233,1.352681,1.943199,-2.219457,0.863796,-1.045883,-0.939213,1.15536,-1.626369,2.182551,0.895728,-1.589368,64.315243,46.288551,71.669294,45.820094,-1.67853,1.209247,1.069291,2.331167,2.178819,2.170068,1.335403,1.866801,0.578769,2.114031,2.272866,1.052287,2.292381,0.556116,1.634556,0.98038,-0.011229
6821,0.378597,1.354182,-1.105929,-1.692943,0.103169,-0.203162,1.93897,2.102162,2.256095,2.310766,2.247814,-0.21392,6.554484,61.214314,-21.032447,57.670815,-26.615791,0.901074,1.108286,0.716193,1.058664,1.459388,2.18373,1.442534,2.425017,2.264061,1.57784,1.759761,1.560101,0.621658,0.698802,1.258792,-0.058649
1242,0.209671,-0.934072,-1.980741,-2.002615,-2.071429,0.622887,-2.069588,-1.416855,-1.375652,-1.607773,-1.009982,-0.73355,-37.098256,39.610369,31.46862,-6.902241,-55.960181,1.033493,1.422773,1.050852,0.66987,1.003007,2.043334,2.071927,1.130372,0.661272,0.506121,0.62996,0.739172,0.258442,0.391198,1.866803,-0.010038
4641,-0.183932,-0.011758,0.305469,2.229809,-1.221144,-1.318036,0.705854,2.205064,2.28232,0.109756,2.127936,1.906408,46.749536,19.446153,-18.505273,-68.128979,56.248494,2.401503,0.803852,0.591496,2.280791,1.505341,0.514998,1.323184,1.256926,1.404466,1.61319,1.891963,0.466021,1.663991,0.695759,1.865854,0.026474
5239,-0.705516,-1.234217,0.443983,2.309275,0.743695,2.018934,-1.686696,1.435317,0.658056,-0.03561,-0.017927,0.29882,-36.220487,-57.725448,8.391322,32.946923,-61.062685,1.666752,2.094725,1.798986,1.560428,1.614501,1.416956,2.286911,0.867429,0.387631,0.406873,2.070548,0.447283,1.733488,0.988539,1.872792,-0.031365
5091,1.234799,-0.096393,0.98592,1.602262,-2.093833,1.063079,-2.214932,1.504945,2.216943,-0.698588,2.110767,0.803201,-50.946069,-50.582611,58.057863,28.497593,9.039123,0.933033,0.492236,1.253463,1.708163,0.604354,2.380914,1.275148,1.66137,1.639203,0.330985,2.368122,2.27957,1.234025,1.266459,1.881398,0.023649
908,-0.03482,-0.88059,1.545476,0.125078,0.464155,2.049591,-0.091316,1.482446,1.076051,-0.961637,1.26189,-1.877127,18.274035,-68.293772,-13.430411,25.087958,3.308411,0.691862,1.621594,1.373744,0.517831,1.684465,0.557863,1.757043,0.871002,1.928986,1.719073,1.713994,1.854119,1.179987,2.040093,1.593606,-0.025861
1465,0.363518,-2.320301,-2.278582,1.452843,-1.661038,-0.879421,2.337616,1.121132,-1.976642,0.915831,1.701257,-1.755804,-26.002942,68.559237,-24.909871,-10.208186,31.010663,0.568143,1.275569,1.98414,1.68661,0.605607,0.943505,0.992884,0.645042,2.21834,0.384395,2.274981,0.600243,0.791462,1.599925,1.682512,-0.006994
1203,-1.655419,-0.68817,-1.87681,1.180854,-1.968821,0.414961,-0.082327,1.775967,0.4007,0.562521,1.240452,0.674662,33.068578,33.593111,-0.591244,-37.043415,61.328529,0.60378,1.737358,0.773936,1.789526,2.315111,2.317445,1.040979,1.229767,1.695993,0.806568,1.245007,1.338255,0.308768,2.462984,1.369385,-0.010098
4649,-1.209732,1.98628,0.845021,-0.877842,0.598681,1.081799,1.405255,-0.381172,-2.224736,1.665447,-0.421652,0.722581,18.850975,28.342949,-40.054672,1.127938,57.257607,0.30391,1.817867,1.646013,2.291706,0.453556,1.41712,0.541257,1.658517,0.952079,1.085776,0.393561,1.082166,0.46584,0.866643,0.675843,0.001277
2114,0.886102,1.566895,1.9806,-0.38037,1.830601,-0.277389,-1.516418,-1.832389,-1.498463,-1.661623,-1.280009,-1.050892,-9.714558,-72.570297,-38.975884,-17.684013,-65.206445,1.0041,2.410395,1.755053,1.173592,0.317248,0.982307,0.630221,0.617785,0.856121,1.584103,1.262123,1.000339,2.204713,0.860502,0.958697,-0.013837
5559,-0.03401,-1.403579,0.261715,1.977187,-1.180242,-1.884071,1.676216,1.494627,-1.550069,-1.92318,-0.618755,0.824875,-5.700646,39.241014,-26.284211,-8.737237,3.258543,1.619962,0.948303,0.631028,0.690441,2.483497,1.890466,2.31722,1.764763,2.378526,1.633639,1.326566,1.835723,2.499811,1.578489,1.41596,0.001828
5957,1.285667,1.897295,-0.906177,0.327129,-1.307959,0.418512,-1.662496,-1.814874,0.711755,-2.286687,1.901053,1.000153,15.102475,27.296803,-72.635758,60.811909,-34.250488,2.155782,1.982318,0.316484,1.651374,2.384987,2.227917,1.60599,2.369494,0.593057,1.501331,0.623508,0.29725,2.37514,0.976234,2.065676,-0.013617
6699,0.604906,2.026772,-1.897866,0.732406,0.795991,-0.246864,-2.143407,1.965623,-2.33163,0.524178,-2.300743,1.284568,72.607387,62.345022,-67.221052,15.778481,-11.063157,2.297777,1.240154,0.775779,1.275785,1.12015,2.104146,0.376417,0.93572,0.643493,0.939142,1.917841,1.159449,1.106038,1.181958,1.412381,-0.009967
3044,0.422674,2.318083,-2.015859,1.526527,2.100436,1.530649,0.677183,0.997665,1.07453,1.743651,-0.804626,1.200022,-7.827587,-8.252338,52.957813,-38.038266,-9.136112,2.115407,0.64566,1.362952,1.376562,0.622667,1.919583,1.179749,0.290644,1.607149,1.60112,1.519898,2.181893,2.082746,0.704866,1.931564,-0.035271
23,-1.57082,-1.975718,2.315516,1.963024,1.117276,-0.8182,-0.735446,-0.050339,2.188729,1.059711,-2.273351,-0.156573,-63.837749,28.945621,39.055475,5.369786,-50.005899,1.387871,1.705744,0.435252,2.037851,2.166787,2.44284,0.311369,1.185966,1.283533,0.837541,2.054808,1.408135,0.265888,1.776097,1.605734,-0.005671
3358,1.125647,-1.494414,0.426044,-2.314976,-2.32447,-1.657857,0.749909,-1.925547,2.017879,-0.566709,-0.935981,-1.078517,61.166175,69.898631,-13.715398,35.310057,56.122073,2.030304,1.323801,0.377607,0.686961,0.258703,0.273861,0.785288,1.332259,0.76972,0.688137,2.017834,0.984711,0.530463,2.493212,0.904849,0.028738
1758,-1.337369,0.927274,0.819253,-0.414931,0.597295,1.344275,2.036141,0.058534,-1.104095,0.866848,-1.585629,-1.111711,2.948449,54.579318,64.59767,-6.964883,-58.788027,1.369418,2.051297,0.893438,1.014968,0.561013,0.693879,1.769872,0.49592,2.421604,1.143689,1.731978,0.350674,0.270288,1.477943,1.288358,0.010547
2973,1.474037,1.106037,-1.204795,0.150311,0.432504,-2.115963,1.415082,-0.140963,1.158738,-1.396454,2.198101,-1.645272,6.693497,-2.404324,-59.4821,34.348933,-47.480599,1.278592,1.050882,1.182513,1.741206,2.453149,0.322868,0.949957,1.425895,1.772573,0.876644,2.262347,2.012512,1.544278,2.428006,0.755701,-0.038301
5285,-1.725816,-1.039743,-1.420793,-1.590028,0.364362,-2.275768,1.637702,-0.207201,0.03202,0.946632,1.013629,0.768358,59.029006,0.508861,2.432297,-70.386334,66.892384,1.529589,0.798728,2.216689,1.899206,0.701368,1.63658,1.2415,0.888009,2.021533,2.407728,1.941366,0.54156,2.254129,1.154027,2.237964,0.081448
4035,1.666244,-1.158182,1.305899,-2.055132,1.205133,0.828981,-1.842955,-0.018971,1.602068,-0.62866,-0.709227,-2.338387,1.476584,66.939709,55.685348,53.64593,-22.862536,2.115275,0.68215,0.39206,0.6012,1.117143,1.076936,0.305218,1.291213,1.666155,1.066722,1.898545,0.843948,1.728629,0.31118,2.496617,-0.006615
4604,1.065133,-0.682943,1.148454,0.128948,-0.464741,2.245651,1.130254,0.546402,-1.067826,-2.179991,-0.279762,1.004632,11.463566,68.147921,-37.889402,-57.171865,12.471449,2.239561,1.556584,2.250284,1.77206,1.265365,1.483662,0.654752,1.161299,0.697971,0.793096,2.071044,2.039615,0.314737,1.536106,2.337975,0.059538
6630,-2.105343,0.834783,1.415237,-2.257085,-0.094126,1.394511,-1.879591,1.570674,-0.492426,-1.240422,-0.169357,-0.100006,48.684799,-4.590133,-46.368618,-67.356747,-14.842347,1.294985,2.066191,1.47205,1.249308,1.610911,1.835487,0.783327,2.129196,0.643717,2.444843,2.475655,0.591352,2.099383,1.325121,2.304058,0.075303
2441,-0.385498,0.467005,-1.887771,0.739005,-1.39315,1.190256,0.539354,-1.719135,-1.843527,-0.200744,0.163062,-2.024935,-6.542295,-6.357924,-57.632238,74.978439,12.616407,0.534241,0.734904,0.532098,0.728242,1.07037,2.467598,2.42352,1.846753,1.124628,0.874843,1.234987,1.670132,0.415352,0.56888,2.42377,-0.020976
5680,0.267596,1.875155,-0.73264,-0.008615,1.295063,-0.405096,0.948331,1.292669,1.773367,-0.885945,1.078092,0.354636,-25.858663,-56.543165,-70.975625,62.663958,43.137909,2.407488,2.394126,0.5696,1.018369,1.484619,0.982441,0.627752,1.883441,1.247819,1.34175,0.543951,1.940454,0.957091,2.07642,2.394571,-0.007251
5062,-1.049475,-0.054875,1.337027,-1.963879,-1.339575,1.557102,2.312303,-0.199013,0.989378,-1.541879,-0.931966,0.434988,61.179259,-10.189002,53.439858,-36.302117,70.313977,2.380214,0.758012,1.907105,0.713853,2.235373,0.907067,0.583166,1.762715,1.702178,1.262285,1.464888,2.376148,2.171887,0.401679,0.275284,0.001534
7456,0.563141,2.237958,-0.936199,-0.022279,-2.164472,1.357076,0.407084,-0.527379,0.349517,-2.02509,1.896279,0.880359,-22.701176,61.337728,-46.803541,-27.107371,-43.590183,1.071831,2.265463,0.390991,0.642729,1.594439,1.73187,0.782017,0.360999,0.563395,2.484627,0.621423,1.258679,1.611654,0.821524,0.605544,-0.015765
2521,1.825109,1.671707,1.114632,1.874352,-0.084292,1.731974,0.868405,1.012156,-0.415487,0.666828,1.311862,-0.798989,54.196128,74.32419,-33.331834,41.868815,39.171304,1.406625,1.890666,1.172889,1.998728,1.616694,2.278128,1.754731,0.26177,2.31116,1.169385,1.59976,1.165047,0.698944,1.402376,2.484231,-0.0375
3717,-1.723143,1.475257,-1.947806,0.195201,0.915017,2.168114,-1.41694,1.895874,-1.222805,-0.956861,1.418344,-1.874367,-5.013351,40.60868,10.083968,-18.757665,39.924098,2.189656,2.043498,0.323051,1.760776,0.605229,1.335832,2.336063,1.21761,2.120173,1.996755,2.219559,0.626708,2.327361,1.207607,0.505423,0.015708
5561,-0.98993,1.687202,-2.351267,0.353413,2.2009,-1.722895,0.936347,-2.194527,0.449033,-2.347942,-0.313653,1.60127,2.719855,-37.389265,-51.370705,12.566914,12.125686,0.570979,1.690576,2.009108,0.580822,0.631912,2.044422,2.34601,1.894575,1.613265,0.898529,1.081365,0.504299,1.497015,2.326041,1.518406,0.005468
2516,0.703997,-0.732278,1.36829,0.397762,-1.687188,-2.127297,-0.591027,0.333153,0.977566,-2.141375,-1.569534,0.789698,-74.916947,-29.134172,-58.025956,57.755837,52.359101,0.616223,1.607653,1.073339,0.602279,1.255388,0.305518,1.843436,1.622606,0.393004,0.716732,1.107236,1.063332,1.172164,1.057647,2.374868,0.00061
3383,-0.873089,0.367516,-1.093287,-1.267544,1.094417,1.418399,-0.942165,-1.339681,-0.231622,-0.433724,0.469551,-1.514777,69.268296,42.254076,64.263126,70.364042,8.458536,0.814328,1.166262,0.868108,0.53682,1.326451,2.156181,1.930256,0.558835,2.342497,1.350277,2.103546,1.545216,2.440048,0.638736,1.993661,-0.022591
6304,1.196397,0.075845,-2.327377,1.309316,-1.178659,1.168677,0.723832,-1.949642,2.326112,0.981719,1.682128,1.907784,32.611774,6.092743,-49.274135,-0.382581,19.956955,1.623119,2.260658,0.632945,1.405531,1.516844,0.341115,1.612509,1.687005,0.49105,1.573733,2.486608,2.424366,0.314386,2.379778,2.432513,-0.010103
1479,1.284198,0.778765,-2.31329,-2.255171,-0.913921,2.121227,2.231183,-1.696607,-0.208763,2.053389,-2.235511,-0.362876,-32.850971,23.722855,10.024395,30.001611,-62.927297,1.838694,0.677265,1.547254,0.696712,2.139307,1.826348,2.426025,1.200275,1.029271,2.454458,2.07902,1.093622,1.759521,2.014252,1.530539,-0.020116
1803,-0.567061,-2.150758,0.950306,1.511919,1.624075,1.663814,0.403411,-1.004537,1.242816,-2.014232,0.597128,-1.452219,-63.105502,35.829887,-57.082393,16.226125,12.482353,0.488642,1.605625,0.731252,2.144087,1.169219,1.063753,1.487837,1.083165,1.504364,2.101358,0.781406,1.335197,0.663506,2.042435,0.455074,0.014436
5388,1.650621,0.156896,-1.983233,-1.471327,2.028635,1.139202,0.129891,1.246846,-0.248979,0.017642,-0.377739,-1.07066,64.5921,49.420392,58.535988,-35.653331,24.46595,2.113359,2.224578,1.733644,1.348365,1.469969,2.260817,1.057732,1.549234,2.475389,0.612102,2.09017,1.742279,2.491355,1.202559,1.152045,-0.009485
2318,1.408974,0.876533,0.961707,-0.084099,0.271448,0.632108,2.107639,0.053075,1.38715,1.638793,-0.714633,1.042019,62.728504,-72.0287,63.64528,36.225,-16.417076,0.297957,0.766281,1.380983,0.679553,1.748196,0.685437,1.642744,1.351175,1.447472,2.159006,2.169927,1.209851,2.221775,1.873013,1.486851,-0.041144
6227,-0.971229,0.263256,-0.384555,2.179809,1.93572,-0.680028,-1.678977,-0.785566,1.099541,-1.99571,0.887708,0.283071,-61.761707,-29.007058,-21.620851,68.358665,54.086621,1.882588,0.405019,2.402754,1.590364,0.742438,1.148628,1.497576,0.504781,0.603294,0.313177,2.31495,1.861207,1.062675,1.371235,1.089451,0.036434
2611,0.793067,-2.266142,-1.514579,0.803857,0.00696,-0.827376,0.557434,0.571361,-0.991852,-2.342552,0.743604,0.501728,66.081509,31.925899,28.577502,2.07461,67.978301,0.794477,0.524067,0.744146,0.609075,0.72516,1.019953,1.098833,1.582889,1.113316,1.995683,2.191936,2.118992,2.39257,1.416504,1.427092,0.01112
2471,2.109199,-1.988873,-2.019031,0.057003,1.43084,0.812317,0.827152,0.401106,-2.035455,2.045029,-1.363165,0.91645,-64.399798,32.592667,-15.04745,-2.488792,20.871258,0.373431,0.253177,1.89783,2.336321,1.048326,0.956589,0.385088,0.426071,0.727954,0.728896,0.810706,1.037354,1.059319,1.217509,0.423109,-0.006752
554,-1.903993,1.418233,0.979115,0.317812,2.33579,-1.297664,-0.905337,0.312394,0.811842,2.256226,-0.208648,-0.728433,0.400183,-24.121371,42.119878,58.794292,-44.340476,0.919355,2.349146,0.600429,1.65451,1.096688,1.52789,1.491324,1.177668,1.307208,0.494496,0.997003,2.385283,0.449243,0.922094,1.131363,0.047311
6173,-0.444982,-0.254099,-1.21263,0.410975,-1.109041,-2.148612,-0.689911,1.860264,-1.246836,0.428146,0.032191,-0.891518,52.431302,-37.106197,56.138685,22.875848,24.372513,1.057375,2.29734,0.64488,1.747011,1.018351,1.170486,2.101584,2.330231,2.199109,1.169635,1.312669,2.278907,1.338164,1.027778,2.106636,0.002723
982,-0.097742,1.867552,-1.271044,-1.172761,1.32802,2.153046,-0.19238,-0.630433,-2.230821,-1.645147,2.320681,-0.757355,-22.320103,16.026272,-46.451719,35.95683,-23.553478,1.175377,1.06381,2.446155,2.023594,1.048153,0.298725,2.414517,1.285426,1.147389,0.910138,0.431903,2.001333,0.41036,2.17581,1.081701,-0.019027
7237,0.779947,-1.302889,0.817304,-0.186594,-2.351352,-1.082065,-1.162756,-0.169458,-1.798887,0.791174,-1.103465,2.031977,24.13963,-35.2362,-14.814516,12.431726,-9.975749,1.938801,2.421592,0.945021,1.710995,0.937372,1.416014,2.198005,0.618892,1.47054,0.617676,1.278255,2.137722,2.189012,2.480066,0.467689,0.01209
6753,-1.315883,-0.795765,-0.655691,2.072971,1.735431,-2.299339,1.306075,0.900724,2.277525,-0.376671,-1.96796,0.749194,6.437536,45.660806,21.164338,59.028143,-13.997705,0.483476,0.285531,1.164105,0.618895,1.52173,1.473464,0.253767,0.553572,1.63632,1.387364,2.174763,1.484274,1.940696,0.534162,1.65466,0.008374
4814,-0.492655,-0.390717,2.287195,1.936619,0.290511,0.591669,1.034157,1.791275,-1.490083,-2.192821,0.854981,1.585953,58.473674,-32.956543,49.385549,72.922429,-42.727595,0.284635,1.855715,1.002432,1.367817,2.153273,0.305294,0.324704,0.304375,0.628239,1.070917,0.406623,2.35461,2.428299,1.175008,1.615536,-0.077255
7389,1.328465,0.218557,2.331317,-1.067243,-1.807211,2.262908,-0.992184,1.501225,0.951935,0.617741,0.986445,0.992608,28.746837,-1.907688,37.486286,32.006479,32.899397,1.977424,1.323443,1.105409,1.864545,0.914506,1.848937,1.832088,2.157619,1.351897,2.340409,2.246129,1.684933,1.673511,0.95046,0.887408,-0.006228
8129,-0.346539,0.228,0.823341,2.313874,-2.0733,2.157913,1.502929,1.324248,0.016137,-2.103328,1.706862,-1.79528,4.787316,60.425897,-71.944721,-24.926939,2.936988,1.554421,1.907178,1.948127,1.665327,0.655615,2.169521,1.135426,2.348577,2.277574,1.432791,0.674423,1.034427,1.363814,2.373073,2.246707,-0.005576
3187,0.049779,-2.164707,2.123467,2.185696,1.921944,-1.316619,0.967124,1.42399,-1.214876,0.358174,2.113829,0.428644,-32.773902,-30.974683,58.497251,63.290968,-68.70832,2.413962,0.950825,0.264786,1.252894,1.145082,0.390449,0.520796,2.021037,0.826948,1.759893,1.517448,1.506541,0.434972,1.827338,1.064588,0.022157
503,0.134579,-0.080529,-0.999401,-1.981246,-1.059816,0.496208,-1.162234,-0.812747,1.374945,-0.859878,0.927629,2.0805,32.85485,41.45867,45.867266,41.144024,7.618515,0.540783,0.432265,1.333755,1.166056,1.902961,0.81939,0.742134,0.548984,1.020782,1.526951,1.459296,0.630005,1.501797,1.695132,2.090609,-0.030987
1595,0.034214,0.118348,0.440258,0.966006,1.479521,-0.964396,2.010708,1.431586,-0.788148,0.125462,2.208505,-1.152147,-29.343192,28.97711,-31.710174,-2.897286,55.311308,2.382198,0.348093,1.892501,0.518133,2.2559,1.6567,1.905489,0.5606,0.50265,0.793839,1.05775,1.858313,1.915718,1.477486,0.35118,0.009941
3442,-1.432015,-1.700089,-2.188344,0.698543,1.850726,-1.318579,1.014486,1.03923,2.224219,-0.937848,0.524739,-2.305328,-12.372464,-44.001759,-37.555556,3.776092,14.772025,1.726469,2.261129,1.794941,1.06573,0.977967,1.949469,1.723074,1.451051,1.560649,0.829753,1.654597,0.311608,0.69223,1.056519,1.412736,0.007767
7211,0.277565,-0.223076,1.82309,0.715318,1.048231,-2.011721,0.401014,1.11772,1.936317,-0.072944,-0.740555,-1.083039,41.964608,-0.833405,-57.034048,-71.251175,-68.505527,1.789184,1.074416,0.711961,1.936813,0.512113,2.331173,2.265422,1.951463,1.486096,1.059836,0.914634,1.756908,0.845066,0.279812,1.79676,0.038618
1123,-1.315461,1.580908,1.869904,0.550897,-0.926561,1.727582,-2.27534,-0.602972,2.190595,-0.571538,-1.991554,0.050935,-50.868908,46.261254,62.898093,-71.744844,34.401582,0.435912,1.875971,1.702552,0.800436,1.671536,1.511503,0.580932,2.467949,1.566253,0.521077,2.245586,1.559285,0.402545,1.321912,2.371133,0.053867
6562,-0.268199,2.130056,-0.175421,1.659276,-0.460462,-1.235895,0.528404,-1.971305,1.082893,0.942928,0.019585,-0.704437,-61.913969,-38.084235,-31.740807,-67.740118,-8.159893,0.72514,0.685693,1.43567,1.807381,0.895506,2.023357,1.554568,2.116955,1.919944,0.506659,0.660853,2.449252,2.334454,1.165663,2.045465,0.061427
8179,-0.335627,-0.153997,-1.124162,-1.815168,0.478121,1.154807,-1.485029,-2.071816,-1.168633,0.01611,2.150594,1.017701,-46.609578,-67.181175,-64.003343,-54.191508,3.329437,1.49264,0.803774,1.530552,1.240895,1.969255,1.262625,0.446232,2.076859,0.766594,2.147089,2.116448,2.384526,1.223754,1.88548,1.762002,0.04805
4667,-1.372498,-0.429497,0.819273,-0.086986,-1.127382,0.602191,-1.182547,1.784565,-1.174381,-2.334148,0.605926,0.319162,46.333055,69.650274,12.154734,-15.386238,3.492994,2.22635,2.263065,0.579165,2.032579,1.307938,1.506525,2.411763,2.257576,0.577297,2.136639,1.992956,1.364727,1.961857,0.684622,1.43749,0.001699
132,2.115061,2.284687,2.183962,1.047461,-0.802304,-2.173197,0.803059,0.735635,-1.493391,-1.243395,1.70581,-0.62602,39.479292,-71.544366,-46.158619,12.096694,59.130793,2.293496,1.28223,1.442557,0.55677,1.381407,1.055345,1.931234,1.247216,2.458108,0.42933,1.502236,2.3264,0.811665,1.397919,1.833136,-0.012424
856,0.020239,0.864907,-1.230828,0.85502,2.240367,1.867696,1.136283,-1.804007,-0.433492,-0.344233,1.296205,-0.050954,40.475881,28.132981,31.014298,7.302157,27.345496,1.311316,2.030557,1.071436,2.374632,1.446996,0.91474,1.284499,1.325581,1.033234,1.563249,1.773838,1.898346,2.005359,0.575887,0.931627,0.002937
6100,0.56408,-0.828308,-0.978378,-2.074763,1.133762,-1.764636,1.541199,-1.070987,1.255134,-2.332493,0.147496,0.24215,-53.499836,-71.747548,-11.041057,-17.04204,74.435571,1.95465,1.054701,2.366463,1.398893,2.4387,0.477658,1.504808,0.561763,2.046806,1.924724,2.085936,0.317442,2.00037,2.213069,1.798878,0.009997
1992,-0.862532,-1.265659,-0.200478,-0.068704,-0.166634,-1.454371,-0.454788,-0.119266,-1.732066,2.297236,1.045759,-1.147177,-70.408195,-0.533347,36.035294,-54.820041,-60.428301,1.848058,0.554901,1.476768,1.786112,1.18412,1.757688,0.46437,0.916387,1.970329,1.323248,2.333032,2.021491,1.705979,2.138477,1.379247,0.052922
2882,-1.089744,1.729987,0.444097,-0.488369,0.966812,0.895088,1.795284,-0.088364,-0.736451,1.921634,-1.810964,0.447269,31.441297,-16.121892,-60.64038,67.12804,70.976653,0.694091,0.845834,1.939776,0.810578,1.142767,1.975958,1.430417,1.269972,2.413457,1.467741,0.825071,1.710311,0.701264,2.137762,0.609664,-0.041044
3355,1.514286,-1.01374,2.069522,0.315038,-1.882591,-1.733313,0.196193,-1.251392,-0.7463,1.310145,-1.381707,0.310502,63.420246,4.082358,62.197784,8.152599,70.738374,1.372712,1.171795,1.605412,1.657174,0.867953,2.442226,1.234694,1.257569,0.967846,0.580672,0.352525,2.142632,1.462042,1.790401,1.268532,0.002908
